(Exported by FreeCAD)
(Post Processor: grbl_post)
(Output Time:2021-02-24 16:39:04.178427)
(Begin preamble)
G17 G90
G21
(Begin operation: Fixture)
(Path: Fixture)
G54
(Finish operation: Fixture)
(Begin operation: TC: Default Tool)
(Path: TC: Default Tool)
(TC: Default Tool)
(Begin toolchange)
( M6 T1.0 )
M3 S24000.0
(Finish operation: TC: Default Tool)
(Begin operation: Profile)
(Path: Profile)
(Profile)
(Compensated Tool Path. Diameter: 2.0)
G0 Z5.000
G0 X18.558 Y17.058
G0 Z3.000
G1 X18.558 Y17.058 Z-0.700 F50.000
G3 X16.988 Y17.406 Z-0.700 I-1.058 J-1.058 K0.000 F100.000
G3 X18.012 Y14.594 Z-0.700 I0.512 J-1.406 K0.000 F100.000
G3 X18.558 Y17.058 Z-0.700 I-0.512 J1.406 K0.000 F100.000
G1 X18.558 Y17.058 Z-1.400 F50.000
G3 X16.988 Y17.406 Z-1.400 I-1.058 J-1.058 K0.000 F100.000
G3 X18.012 Y14.594 Z-1.400 I0.512 J-1.406 K0.000 F100.000
G3 X18.558 Y17.058 Z-1.400 I-0.512 J1.406 K0.000 F100.000
G1 X18.558 Y17.058 Z-2.100 F50.000
G3 X16.988 Y17.406 Z-2.100 I-1.058 J-1.058 K0.000 F100.000
G3 X18.012 Y14.594 Z-2.100 I0.512 J-1.406 K0.000 F100.000
G3 X18.558 Y17.058 Z-2.100 I-0.512 J1.406 K0.000 F100.000
G1 X18.558 Y17.058 Z-2.800 F50.000
G3 X16.988 Y17.406 Z-2.800 I-1.058 J-1.058 K0.000 F100.000
G3 X18.012 Y14.594 Z-2.800 I0.512 J-1.406 K0.000 F100.000
G3 X18.558 Y17.058 Z-2.800 I-0.512 J1.406 K0.000 F100.000
G1 X18.558 Y17.058 Z-3.100 F50.000
G3 X16.988 Y17.406 Z-3.100 I-1.058 J-1.058 K0.000 F100.000
G3 X18.012 Y14.594 Z-3.100 I0.512 J-1.406 K0.000 F100.000
G3 X18.558 Y17.058 Z-3.100 I-0.512 J1.406 K0.000 F100.000
G0 Z5.000
G0 Z5.000
G0 X18.558 Y17.058
G0 X23.394 Y16.247
G0 X23.394 Y16.247 Z3.000
G1 X23.394 Y16.247 Z-0.700 F50.000
G3 X25.382 Y14.594 Z-0.700 I1.476 J-0.247 K0.000 F100.000
G3 X26.276 Y16.512 Z-0.700 I-0.512 J1.406 K0.000 F100.000
G3 X24.358 Y17.406 Z-0.700 I-1.406 J-0.512 K0.000 F100.000
G3 X23.394 Y16.247 Z-0.700 I0.512 J-1.406 K0.000 F100.000
G1 X23.394 Y16.247 Z-1.400 F50.000
G3 X25.382 Y14.594 Z-1.400 I1.476 J-0.247 K0.000 F100.000
G3 X26.276 Y16.512 Z-1.400 I-0.512 J1.406 K0.000 F100.000
G3 X24.358 Y17.406 Z-1.400 I-1.406 J-0.512 K0.000 F100.000
G3 X23.394 Y16.247 Z-1.400 I0.512 J-1.406 K0.000 F100.000
G1 X23.394 Y16.247 Z-2.100 F50.000
G3 X25.382 Y14.594 Z-2.100 I1.476 J-0.247 K0.000 F100.000
G3 X26.276 Y16.512 Z-2.100 I-0.512 J1.406 K0.000 F100.000
G3 X24.358 Y17.406 Z-2.100 I-1.406 J-0.512 K0.000 F100.000
G3 X23.394 Y16.247 Z-2.100 I0.512 J-1.406 K0.000 F100.000
G1 X23.394 Y16.247 Z-2.800 F50.000
G3 X25.382 Y14.594 Z-2.800 I1.476 J-0.247 K0.000 F100.000
G3 X26.276 Y16.512 Z-2.800 I-0.512 J1.406 K0.000 F100.000
G3 X24.358 Y17.406 Z-2.800 I-1.406 J-0.512 K0.000 F100.000
G3 X23.394 Y16.247 Z-2.800 I0.512 J-1.406 K0.000 F100.000
G1 X23.394 Y16.247 Z-3.100 F50.000
G3 X25.382 Y14.594 Z-3.100 I1.476 J-0.247 K0.000 F100.000
G3 X26.276 Y16.512 Z-3.100 I-0.512 J1.406 K0.000 F100.000
G3 X24.358 Y17.406 Z-3.100 I-1.406 J-0.512 K0.000 F100.000
G3 X23.394 Y16.247 Z-3.100 I0.512 J-1.406 K0.000 F100.000
G0 Z5.000
G0 Z5.000
G0 X23.394 Y16.247
G0 X30.744 Y16.042
G0 X30.744 Y16.042 Z3.000
G1 X30.744 Y16.042 Z-0.700 F50.000
G3 X32.752 Y14.594 Z-0.700 I1.496 J-0.042 K0.000 F100.000
G3 X31.728 Y17.406 Z-0.700 I-0.512 J1.406 K0.000 F100.000
G3 X30.744 Y16.042 Z-0.700 I0.512 J-1.406 K0.000 F100.000
G1 X30.744 Y16.042 Z-1.400 F50.000
G3 X32.752 Y14.594 Z-1.400 I1.496 J-0.042 K0.000 F100.000
G3 X31.728 Y17.406 Z-1.400 I-0.512 J1.406 K0.000 F100.000
G3 X30.744 Y16.042 Z-1.400 I0.512 J-1.406 K0.000 F100.000
G1 X30.744 Y16.042 Z-2.100 F50.000
G3 X32.752 Y14.594 Z-2.100 I1.496 J-0.042 K0.000 F100.000
G3 X31.728 Y17.406 Z-2.100 I-0.512 J1.406 K0.000 F100.000
G3 X30.744 Y16.042 Z-2.100 I0.512 J-1.406 K0.000 F100.000
G1 X30.744 Y16.042 Z-2.800 F50.000
G3 X32.752 Y14.594 Z-2.800 I1.496 J-0.042 K0.000 F100.000
G3 X31.728 Y17.406 Z-2.800 I-0.512 J1.406 K0.000 F100.000
G3 X30.744 Y16.042 Z-2.800 I0.512 J-1.406 K0.000 F100.000
G1 X30.744 Y16.042 Z-3.100 F50.000
G3 X32.752 Y14.594 Z-3.100 I1.496 J-0.042 K0.000 F100.000
G3 X31.728 Y17.406 Z-3.100 I-0.512 J1.406 K0.000 F100.000
G3 X30.744 Y16.042 Z-3.100 I0.512 J-1.406 K0.000 F100.000
G0 Z5.000
G0 Z5.000
G0 X30.744 Y16.042
G0 X38.114 Y16.007
G0 X38.114 Y16.007 Z3.000
G1 X38.114 Y16.007 Z-0.700 F50.000
G3 X40.122 Y14.594 Z-0.700 I1.496 J-0.007 K0.000 F100.000
G3 X39.098 Y17.406 Z-0.700 I-0.512 J1.406 K0.000 F100.000
G3 X38.114 Y16.007 Z-0.700 I0.512 J-1.406 K0.000 F100.000
G1 X38.114 Y16.007 Z-1.400 F50.000
G3 X40.122 Y14.594 Z-1.400 I1.496 J-0.007 K0.000 F100.000
G3 X39.098 Y17.406 Z-1.400 I-0.512 J1.406 K0.000 F100.000
G3 X38.114 Y16.007 Z-1.400 I0.512 J-1.406 K0.000 F100.000
G1 X38.114 Y16.007 Z-2.100 F50.000
G3 X40.122 Y14.594 Z-2.100 I1.496 J-0.007 K0.000 F100.000
G3 X39.098 Y17.406 Z-2.100 I-0.512 J1.406 K0.000 F100.000
G3 X38.114 Y16.007 Z-2.100 I0.512 J-1.406 K0.000 F100.000
G1 X38.114 Y16.007 Z-2.800 F50.000
G3 X40.122 Y14.594 Z-2.800 I1.496 J-0.007 K0.000 F100.000
G3 X39.098 Y17.406 Z-2.800 I-0.512 J1.406 K0.000 F100.000
G3 X38.114 Y16.007 Z-2.800 I0.512 J-1.406 K0.000 F100.000
G1 X38.114 Y16.007 Z-3.100 F50.000
G3 X40.122 Y14.594 Z-3.100 I1.496 J-0.007 K0.000 F100.000
G3 X39.098 Y17.406 Z-3.100 I-0.512 J1.406 K0.000 F100.000
G3 X38.114 Y16.007 Z-3.100 I0.512 J-1.406 K0.000 F100.000
G0 Z5.000
G0 Z5.000
G0 X38.114 Y16.007
G0 X46.614 Y16.001
G0 X46.614 Y16.001 Z3.000
G1 X46.614 Y16.001 Z-0.700 F50.000
G3 X48.622 Y14.594 Z-0.700 I1.496 J-0.001 K0.000 F100.000
G3 X47.598 Y17.406 Z-0.700 I-0.512 J1.406 K0.000 F100.000
G3 X46.614 Y16.001 Z-0.700 I0.512 J-1.406 K0.000 F100.000
G1 X46.614 Y16.001 Z-1.400 F50.000
G3 X48.622 Y14.594 Z-1.400 I1.496 J-0.001 K0.000 F100.000
G3 X47.598 Y17.406 Z-1.400 I-0.512 J1.406 K0.000 F100.000
G3 X46.614 Y16.001 Z-1.400 I0.512 J-1.406 K0.000 F100.000
G1 X46.614 Y16.001 Z-2.100 F50.000
G3 X48.622 Y14.594 Z-2.100 I1.496 J-0.001 K0.000 F100.000
G3 X47.598 Y17.406 Z-2.100 I-0.512 J1.406 K0.000 F100.000
G3 X46.614 Y16.001 Z-2.100 I0.512 J-1.406 K0.000 F100.000
G1 X46.614 Y16.001 Z-2.800 F50.000
G3 X48.622 Y14.594 Z-2.800 I1.496 J-0.001 K0.000 F100.000
G3 X47.598 Y17.406 Z-2.800 I-0.512 J1.406 K0.000 F100.000
G3 X46.614 Y16.001 Z-2.800 I0.512 J-1.406 K0.000 F100.000
G1 X46.614 Y16.001 Z-3.100 F50.000
G3 X48.622 Y14.594 Z-3.100 I1.496 J-0.001 K0.000 F100.000
G3 X47.598 Y17.406 Z-3.100 I-0.512 J1.406 K0.000 F100.000
G3 X46.614 Y16.001 Z-3.100 I0.512 J-1.406 K0.000 F100.000
G0 Z5.000
G0 Z5.000
G0 X46.614 Y16.001
G0 X54.297 Y16.000
G0 X54.297 Y16.000 Z3.000
G1 X54.297 Y16.000 Z-0.700 F50.000
G3 X56.305 Y14.594 Z-0.700 I1.496 J-0.000 K0.000 F100.000
G3 X57.200 Y16.512 Z-0.700 I-0.512 J1.406 K0.000 F100.000
G3 X55.282 Y17.406 Z-0.700 I-1.406 J-0.512 K0.000 F100.000
G3 X54.297 Y16.000 Z-0.700 I0.512 J-1.406 K0.000 F100.000
G1 X54.297 Y16.000 Z-1.400 F50.000
G3 X56.305 Y14.594 Z-1.400 I1.496 J-0.000 K0.000 F100.000
G3 X57.200 Y16.512 Z-1.400 I-0.512 J1.406 K0.000 F100.000
G3 X55.282 Y17.406 Z-1.400 I-1.406 J-0.512 K0.000 F100.000
G3 X54.297 Y16.000 Z-1.400 I0.512 J-1.406 K0.000 F100.000
G1 X54.297 Y16.000 Z-2.100 F50.000
G3 X56.305 Y14.594 Z-2.100 I1.496 J-0.000 K0.000 F100.000
G3 X57.200 Y16.512 Z-2.100 I-0.512 J1.406 K0.000 F100.000
G3 X55.282 Y17.406 Z-2.100 I-1.406 J-0.512 K0.000 F100.000
G3 X54.297 Y16.000 Z-2.100 I0.512 J-1.406 K0.000 F100.000
G1 X54.297 Y16.000 Z-2.800 F50.000
G3 X56.305 Y14.594 Z-2.800 I1.496 J-0.000 K0.000 F100.000
G3 X57.200 Y16.512 Z-2.800 I-0.512 J1.406 K0.000 F100.000
G3 X55.282 Y17.406 Z-2.800 I-1.406 J-0.512 K0.000 F100.000
G3 X54.297 Y16.000 Z-2.800 I0.512 J-1.406 K0.000 F100.000
G1 X54.297 Y16.000 Z-3.100 F50.000
G3 X56.305 Y14.594 Z-3.100 I1.496 J-0.000 K0.000 F100.000
G3 X57.200 Y16.512 Z-3.100 I-0.512 J1.406 K0.000 F100.000
G3 X55.282 Y17.406 Z-3.100 I-1.406 J-0.512 K0.000 F100.000
G3 X54.297 Y16.000 Z-3.100 I0.512 J-1.406 K0.000 F100.000
G0 Z5.000
G0 Z5.000
G0 X54.297 Y16.000
G0 X61.981 Y16.000
G0 X61.981 Y16.000 Z3.000
G1 X61.981 Y16.000 Z-0.700 F50.000
G3 X63.989 Y14.594 Z-0.700 I1.496 J-0.000 K0.000 F100.000
G3 X62.966 Y17.406 Z-0.700 I-0.512 J1.406 K0.000 F100.000
G3 X61.981 Y16.000 Z-0.700 I0.512 J-1.406 K0.000 F100.000
G1 X61.981 Y16.000 Z-1.400 F50.000
G3 X63.989 Y14.594 Z-1.400 I1.496 J-0.000 K0.000 F100.000
G3 X62.966 Y17.406 Z-1.400 I-0.512 J1.406 K0.000 F100.000
G3 X61.981 Y16.000 Z-1.400 I0.512 J-1.406 K0.000 F100.000
G1 X61.981 Y16.000 Z-2.100 F50.000
G3 X63.989 Y14.594 Z-2.100 I1.496 J-0.000 K0.000 F100.000
G3 X62.966 Y17.406 Z-2.100 I-0.512 J1.406 K0.000 F100.000
G3 X61.981 Y16.000 Z-2.100 I0.512 J-1.406 K0.000 F100.000
G1 X61.981 Y16.000 Z-2.800 F50.000
G3 X63.989 Y14.594 Z-2.800 I1.496 J-0.000 K0.000 F100.000
G3 X62.966 Y17.406 Z-2.800 I-0.512 J1.406 K0.000 F100.000
G3 X61.981 Y16.000 Z-2.800 I0.512 J-1.406 K0.000 F100.000
G1 X61.981 Y16.000 Z-3.100 F50.000
G3 X63.989 Y14.594 Z-3.100 I1.496 J-0.000 K0.000 F100.000
G3 X62.966 Y17.406 Z-3.100 I-0.512 J1.406 K0.000 F100.000
G3 X61.981 Y16.000 Z-3.100 I0.512 J-1.406 K0.000 F100.000
G0 Z5.000
G0 Z5.000
G0 X61.981 Y16.000
G0 X69.665 Y16.000
G0 X69.665 Y16.000 Z3.000
G1 X69.665 Y16.000 Z-0.700 F50.000
G3 X71.673 Y14.594 Z-0.700 I1.496 J-0.000 K0.000 F100.000
G3 X70.649 Y17.406 Z-0.700 I-0.512 J1.406 K0.000 F100.000
G3 X69.665 Y16.000 Z-0.700 I0.512 J-1.406 K0.000 F100.000
G1 X69.665 Y16.000 Z-1.400 F50.000
G3 X71.673 Y14.594 Z-1.400 I1.496 J-0.000 K0.000 F100.000
G3 X70.649 Y17.406 Z-1.400 I-0.512 J1.406 K0.000 F100.000
G3 X69.665 Y16.000 Z-1.400 I0.512 J-1.406 K0.000 F100.000
G1 X69.665 Y16.000 Z-2.100 F50.000
G3 X71.673 Y14.594 Z-2.100 I1.496 J-0.000 K0.000 F100.000
G3 X70.649 Y17.406 Z-2.100 I-0.512 J1.406 K0.000 F100.000
G3 X69.665 Y16.000 Z-2.100 I0.512 J-1.406 K0.000 F100.000
G1 X69.665 Y16.000 Z-2.800 F50.000
G3 X71.673 Y14.594 Z-2.800 I1.496 J-0.000 K0.000 F100.000
G3 X70.649 Y17.406 Z-2.800 I-0.512 J1.406 K0.000 F100.000
G3 X69.665 Y16.000 Z-2.800 I0.512 J-1.406 K0.000 F100.000
G1 X69.665 Y16.000 Z-3.100 F50.000
G3 X71.673 Y14.594 Z-3.100 I1.496 J-0.000 K0.000 F100.000
G3 X70.649 Y17.406 Z-3.100 I-0.512 J1.406 K0.000 F100.000
G3 X69.665 Y16.000 Z-3.100 I0.512 J-1.406 K0.000 F100.000
G0 Z5.000
G0 Z5.000
G0 X69.665 Y16.000
G0 X78.165 Y16.000
G0 X78.165 Y16.000 Z3.000
G1 X78.165 Y16.000 Z-0.700 F50.000
G3 X80.173 Y14.594 Z-0.700 I1.496 J-0.000 K0.000 F100.000
G3 X79.149 Y17.406 Z-0.700 I-0.512 J1.406 K0.000 F100.000
G3 X78.165 Y16.000 Z-0.700 I0.512 J-1.406 K0.000 F100.000
G1 X78.165 Y16.000 Z-1.400 F50.000
G3 X80.173 Y14.594 Z-1.400 I1.496 J-0.000 K0.000 F100.000
G3 X79.149 Y17.406 Z-1.400 I-0.512 J1.406 K0.000 F100.000
G3 X78.165 Y16.000 Z-1.400 I0.512 J-1.406 K0.000 F100.000
G1 X78.165 Y16.000 Z-2.100 F50.000
G3 X80.173 Y14.594 Z-2.100 I1.496 J-0.000 K0.000 F100.000
G3 X79.149 Y17.406 Z-2.100 I-0.512 J1.406 K0.000 F100.000
G3 X78.165 Y16.000 Z-2.100 I0.512 J-1.406 K0.000 F100.000
G1 X78.165 Y16.000 Z-2.800 F50.000
G3 X80.173 Y14.594 Z-2.800 I1.496 J-0.000 K0.000 F100.000
G3 X79.149 Y17.406 Z-2.800 I-0.512 J1.406 K0.000 F100.000
G3 X78.165 Y16.000 Z-2.800 I0.512 J-1.406 K0.000 F100.000
G1 X78.165 Y16.000 Z-3.100 F50.000
G3 X80.173 Y14.594 Z-3.100 I1.496 J-0.000 K0.000 F100.000
G3 X79.149 Y17.406 Z-3.100 I-0.512 J1.406 K0.000 F100.000
G3 X78.165 Y16.000 Z-3.100 I0.512 J-1.406 K0.000 F100.000
G0 Z5.000
G0 Z5.000
G0 X78.165 Y16.000
G0 X85.553 Y16.000
G0 X85.553 Y16.000 Z3.000
G1 X85.553 Y16.000 Z-0.700 F50.000
G3 X87.560 Y14.594 Z-0.700 I1.496 J-0.000 K0.000 F100.000
G3 X86.537 Y17.406 Z-0.700 I-0.512 J1.406 K0.000 F100.000
G3 X85.553 Y16.000 Z-0.700 I0.512 J-1.406 K0.000 F100.000
G1 X85.553 Y16.000 Z-1.400 F50.000
G3 X87.560 Y14.594 Z-1.400 I1.496 J-0.000 K0.000 F100.000
G3 X86.537 Y17.406 Z-1.400 I-0.512 J1.406 K0.000 F100.000
G3 X85.553 Y16.000 Z-1.400 I0.512 J-1.406 K0.000 F100.000
G1 X85.553 Y16.000 Z-2.100 F50.000
G3 X87.560 Y14.594 Z-2.100 I1.496 J-0.000 K0.000 F100.000
G3 X86.537 Y17.406 Z-2.100 I-0.512 J1.406 K0.000 F100.000
G3 X85.553 Y16.000 Z-2.100 I0.512 J-1.406 K0.000 F100.000
G1 X85.553 Y16.000 Z-2.800 F50.000
G3 X87.560 Y14.594 Z-2.800 I1.496 J-0.000 K0.000 F100.000
G3 X86.537 Y17.406 Z-2.800 I-0.512 J1.406 K0.000 F100.000
G3 X85.553 Y16.000 Z-2.800 I0.512 J-1.406 K0.000 F100.000
G1 X85.553 Y16.000 Z-3.100 F50.000
G3 X87.560 Y14.594 Z-3.100 I1.496 J-0.000 K0.000 F100.000
G3 X86.537 Y17.406 Z-3.100 I-0.512 J1.406 K0.000 F100.000
G3 X85.553 Y16.000 Z-3.100 I0.512 J-1.406 K0.000 F100.000
G0 Z5.000
G0 Z5.000
G0 X85.553 Y16.000
G0 X92.940
G0 X92.940 Z3.000
G1 X92.940 Y16.000 Z-0.700 F50.000
G3 X94.948 Y14.594 Z-0.700 I1.496 J-0.000 K0.000 F100.000
G3 X95.842 Y16.512 Z-0.700 I-0.512 J1.406 K0.000 F100.000
G3 X93.925 Y17.406 Z-0.700 I-1.406 J-0.512 K0.000 F100.000
G3 X92.940 Y16.000 Z-0.700 I0.512 J-1.406 K0.000 F100.000
G1 X92.940 Y16.000 Z-1.400 F50.000
G3 X94.948 Y14.594 Z-1.400 I1.496 J-0.000 K0.000 F100.000
G3 X95.842 Y16.512 Z-1.400 I-0.512 J1.406 K0.000 F100.000
G3 X93.925 Y17.406 Z-1.400 I-1.406 J-0.512 K0.000 F100.000
G3 X92.940 Y16.000 Z-1.400 I0.512 J-1.406 K0.000 F100.000
G1 X92.940 Y16.000 Z-2.100 F50.000
G3 X94.948 Y14.594 Z-2.100 I1.496 J-0.000 K0.000 F100.000
G3 X95.842 Y16.512 Z-2.100 I-0.512 J1.406 K0.000 F100.000
G3 X93.925 Y17.406 Z-2.100 I-1.406 J-0.512 K0.000 F100.000
G3 X92.940 Y16.000 Z-2.100 I0.512 J-1.406 K0.000 F100.000
G1 X92.940 Y16.000 Z-2.800 F50.000
G3 X94.948 Y14.594 Z-2.800 I1.496 J-0.000 K0.000 F100.000
G3 X95.842 Y16.512 Z-2.800 I-0.512 J1.406 K0.000 F100.000
G3 X93.925 Y17.406 Z-2.800 I-1.406 J-0.512 K0.000 F100.000
G3 X92.940 Y16.000 Z-2.800 I0.512 J-1.406 K0.000 F100.000
G1 X92.940 Y16.000 Z-3.100 F50.000
G3 X94.948 Y14.594 Z-3.100 I1.496 J-0.000 K0.000 F100.000
G3 X95.842 Y16.512 Z-3.100 I-0.512 J1.406 K0.000 F100.000
G3 X93.925 Y17.406 Z-3.100 I-1.406 J-0.512 K0.000 F100.000
G3 X92.940 Y16.000 Z-3.100 I0.512 J-1.406 K0.000 F100.000
G0 Z5.000
G0 Z5.000
G0 X92.940 Y16.000
G0 X100.328
G0 X100.328 Z3.000
G1 X100.328 Y16.000 Z-0.700 F50.000
G3 X102.336 Y14.594 Z-0.700 I1.496 J-0.000 K0.000 F100.000
G3 X101.312 Y17.406 Z-0.700 I-0.512 J1.406 K0.000 F100.000
G3 X100.328 Y16.000 Z-0.700 I0.512 J-1.406 K0.000 F100.000
G1 X100.328 Y16.000 Z-1.400 F50.000
G3 X102.336 Y14.594 Z-1.400 I1.496 J-0.000 K0.000 F100.000
G3 X101.312 Y17.406 Z-1.400 I-0.512 J1.406 K0.000 F100.000
G3 X100.328 Y16.000 Z-1.400 I0.512 J-1.406 K0.000 F100.000
G1 X100.328 Y16.000 Z-2.100 F50.000
G3 X102.336 Y14.594 Z-2.100 I1.496 J-0.000 K0.000 F100.000
G3 X101.312 Y17.406 Z-2.100 I-0.512 J1.406 K0.000 F100.000
G3 X100.328 Y16.000 Z-2.100 I0.512 J-1.406 K0.000 F100.000
G1 X100.328 Y16.000 Z-2.800 F50.000
G3 X102.336 Y14.594 Z-2.800 I1.496 J-0.000 K0.000 F100.000
G3 X101.312 Y17.406 Z-2.800 I-0.512 J1.406 K0.000 F100.000
G3 X100.328 Y16.000 Z-2.800 I0.512 J-1.406 K0.000 F100.000
G1 X100.328 Y16.000 Z-3.100 F50.000
G3 X102.336 Y14.594 Z-3.100 I1.496 J-0.000 K0.000 F100.000
G3 X101.312 Y17.406 Z-3.100 I-0.512 J1.406 K0.000 F100.000
G3 X100.328 Y16.000 Z-3.100 I0.512 J-1.406 K0.000 F100.000
G0 Z5.000
G0 Z5.000
G0 X100.328 Y16.000
G0 X108.828
G0 X108.828 Z3.000
G1 X108.828 Y16.000 Z-0.700 F50.000
G3 X110.836 Y14.594 Z-0.700 I1.496 J-0.000 K0.000 F100.000
G3 X111.730 Y16.512 Z-0.700 I-0.512 J1.406 K0.000 F100.000
G3 X109.812 Y17.406 Z-0.700 I-1.406 J-0.512 K0.000 F100.000
G3 X108.828 Y16.000 Z-0.700 I0.512 J-1.406 K0.000 F100.000
G1 X108.828 Y16.000 Z-1.400 F50.000
G3 X110.836 Y14.594 Z-1.400 I1.496 J-0.000 K0.000 F100.000
G3 X111.730 Y16.512 Z-1.400 I-0.512 J1.406 K0.000 F100.000
G3 X109.812 Y17.406 Z-1.400 I-1.406 J-0.512 K0.000 F100.000
G3 X108.828 Y16.000 Z-1.400 I0.512 J-1.406 K0.000 F100.000
G1 X108.828 Y16.000 Z-2.100 F50.000
G3 X110.836 Y14.594 Z-2.100 I1.496 J-0.000 K0.000 F100.000
G3 X111.730 Y16.512 Z-2.100 I-0.512 J1.406 K0.000 F100.000
G3 X109.812 Y17.406 Z-2.100 I-1.406 J-0.512 K0.000 F100.000
G3 X108.828 Y16.000 Z-2.100 I0.512 J-1.406 K0.000 F100.000
G1 X108.828 Y16.000 Z-2.800 F50.000
G3 X110.836 Y14.594 Z-2.800 I1.496 J-0.000 K0.000 F100.000
G3 X111.730 Y16.512 Z-2.800 I-0.512 J1.406 K0.000 F100.000
G3 X109.812 Y17.406 Z-2.800 I-1.406 J-0.512 K0.000 F100.000
G3 X108.828 Y16.000 Z-2.800 I0.512 J-1.406 K0.000 F100.000
G1 X108.828 Y16.000 Z-3.100 F50.000
G3 X110.836 Y14.594 Z-3.100 I1.496 J-0.000 K0.000 F100.000
G3 X111.730 Y16.512 Z-3.100 I-0.512 J1.406 K0.000 F100.000
G3 X109.812 Y17.406 Z-3.100 I-1.406 J-0.512 K0.000 F100.000
G3 X108.828 Y16.000 Z-3.100 I0.512 J-1.406 K0.000 F100.000
G0 Z5.000
G0 Z5.000
G0 X108.828 Y16.000
G0 X116.220
G0 X116.220 Z3.000
G1 X116.220 Y16.000 Z-0.700 F50.000
G3 X118.228 Y14.594 Z-0.700 I1.496 J-0.000 K0.000 F100.000
G3 X119.122 Y16.512 Z-0.700 I-0.512 J1.406 K0.000 F100.000
G3 X117.204 Y17.406 Z-0.700 I-1.406 J-0.512 K0.000 F100.000
G3 X116.220 Y16.000 Z-0.700 I0.512 J-1.406 K0.000 F100.000
G1 X116.220 Y16.000 Z-1.400 F50.000
G3 X118.228 Y14.594 Z-1.400 I1.496 J-0.000 K0.000 F100.000
G3 X119.122 Y16.512 Z-1.400 I-0.512 J1.406 K0.000 F100.000
G3 X117.204 Y17.406 Z-1.400 I-1.406 J-0.512 K0.000 F100.000
G3 X116.220 Y16.000 Z-1.400 I0.512 J-1.406 K0.000 F100.000
G1 X116.220 Y16.000 Z-2.100 F50.000
G3 X118.228 Y14.594 Z-2.100 I1.496 J-0.000 K0.000 F100.000
G3 X119.122 Y16.512 Z-2.100 I-0.512 J1.406 K0.000 F100.000
G3 X117.204 Y17.406 Z-2.100 I-1.406 J-0.512 K0.000 F100.000
G3 X116.220 Y16.000 Z-2.100 I0.512 J-1.406 K0.000 F100.000
G1 X116.220 Y16.000 Z-2.800 F50.000
G3 X118.228 Y14.594 Z-2.800 I1.496 J-0.000 K0.000 F100.000
G3 X119.122 Y16.512 Z-2.800 I-0.512 J1.406 K0.000 F100.000
G3 X117.204 Y17.406 Z-2.800 I-1.406 J-0.512 K0.000 F100.000
G3 X116.220 Y16.000 Z-2.800 I0.512 J-1.406 K0.000 F100.000
G1 X116.220 Y16.000 Z-3.100 F50.000
G3 X118.228 Y14.594 Z-3.100 I1.496 J-0.000 K0.000 F100.000
G3 X119.122 Y16.512 Z-3.100 I-0.512 J1.406 K0.000 F100.000
G3 X117.204 Y17.406 Z-3.100 I-1.406 J-0.512 K0.000 F100.000
G3 X116.220 Y16.000 Z-3.100 I0.512 J-1.406 K0.000 F100.000
G0 Z5.000
G0 Z5.000
G0 X116.220 Y16.000
G0 X123.612
G0 X123.612 Z3.000
G1 X123.612 Y16.000 Z-0.700 F50.000
G3 X125.620 Y14.594 Z-0.700 I1.496 J-0.000 K0.000 F100.000
G3 X124.596 Y17.406 Z-0.700 I-0.512 J1.406 K0.000 F100.000
G3 X123.612 Y16.000 Z-0.700 I0.512 J-1.406 K0.000 F100.000
G1 X123.612 Y16.000 Z-1.400 F50.000
G3 X125.620 Y14.594 Z-1.400 I1.496 J-0.000 K0.000 F100.000
G3 X124.596 Y17.406 Z-1.400 I-0.512 J1.406 K0.000 F100.000
G3 X123.612 Y16.000 Z-1.400 I0.512 J-1.406 K0.000 F100.000
G1 X123.612 Y16.000 Z-2.100 F50.000
G3 X125.620 Y14.594 Z-2.100 I1.496 J-0.000 K0.000 F100.000
G3 X124.596 Y17.406 Z-2.100 I-0.512 J1.406 K0.000 F100.000
G3 X123.612 Y16.000 Z-2.100 I0.512 J-1.406 K0.000 F100.000
G1 X123.612 Y16.000 Z-2.800 F50.000
G3 X125.620 Y14.594 Z-2.800 I1.496 J-0.000 K0.000 F100.000
G3 X124.596 Y17.406 Z-2.800 I-0.512 J1.406 K0.000 F100.000
G3 X123.612 Y16.000 Z-2.800 I0.512 J-1.406 K0.000 F100.000
G1 X123.612 Y16.000 Z-3.100 F50.000
G3 X125.620 Y14.594 Z-3.100 I1.496 J-0.000 K0.000 F100.000
G3 X124.596 Y17.406 Z-3.100 I-0.512 J1.406 K0.000 F100.000
G3 X123.612 Y16.000 Z-3.100 I0.512 J-1.406 K0.000 F100.000
G0 Z5.000
G0 Z5.000
G0 X123.612 Y16.000
G0 X131.004
G0 X131.004 Z3.000
G1 X131.004 Y16.000 Z-0.700 F50.000
G3 X133.012 Y14.594 Z-0.700 I1.496 J-0.000 K0.000 F100.000
G3 X131.988 Y17.406 Z-0.700 I-0.512 J1.406 K0.000 F100.000
G3 X131.004 Y16.000 Z-0.700 I0.512 J-1.406 K0.000 F100.000
G1 X131.004 Y16.000 Z-1.400 F50.000
G3 X133.012 Y14.594 Z-1.400 I1.496 J-0.000 K0.000 F100.000
G3 X131.988 Y17.406 Z-1.400 I-0.512 J1.406 K0.000 F100.000
G3 X131.004 Y16.000 Z-1.400 I0.512 J-1.406 K0.000 F100.000
G1 X131.004 Y16.000 Z-2.100 F50.000
G3 X133.012 Y14.594 Z-2.100 I1.496 J-0.000 K0.000 F100.000
G3 X131.988 Y17.406 Z-2.100 I-0.512 J1.406 K0.000 F100.000
G3 X131.004 Y16.000 Z-2.100 I0.512 J-1.406 K0.000 F100.000
G1 X131.004 Y16.000 Z-2.800 F50.000
G3 X133.012 Y14.594 Z-2.800 I1.496 J-0.000 K0.000 F100.000
G3 X131.988 Y17.406 Z-2.800 I-0.512 J1.406 K0.000 F100.000
G3 X131.004 Y16.000 Z-2.800 I0.512 J-1.406 K0.000 F100.000
G1 X131.004 Y16.000 Z-3.100 F50.000
G3 X133.012 Y14.594 Z-3.100 I1.496 J-0.000 K0.000 F100.000
G3 X131.988 Y17.406 Z-3.100 I-0.512 J1.406 K0.000 F100.000
G3 X131.004 Y16.000 Z-3.100 I0.512 J-1.406 K0.000 F100.000
G0 Z5.000
G0 Z5.000
G0 X131.004 Y16.000
G0 X132.329 Y27.514
G0 X132.329 Y27.514 Z3.000
G1 X132.329 Y27.514 Z-0.700 F50.000
G3 X133.012 Y27.594 Z-0.700 I0.171 J1.486 K0.000 F100.000
G3 X131.988 Y30.406 Z-0.700 I-0.512 J1.406 K0.000 F100.000
G3 X132.329 Y27.514 Z-0.700 I0.512 J-1.406 K0.000 F100.000
G1 X132.329 Y27.514 Z-1.400 F50.000
G3 X133.012 Y27.594 Z-1.400 I0.171 J1.486 K0.000 F100.000
G3 X131.988 Y30.406 Z-1.400 I-0.512 J1.406 K0.000 F100.000
G3 X132.329 Y27.514 Z-1.400 I0.512 J-1.406 K0.000 F100.000
G1 X132.329 Y27.514 Z-2.100 F50.000
G3 X133.012 Y27.594 Z-2.100 I0.171 J1.486 K0.000 F100.000
G3 X131.988 Y30.406 Z-2.100 I-0.512 J1.406 K0.000 F100.000
G3 X132.329 Y27.514 Z-2.100 I0.512 J-1.406 K0.000 F100.000
G1 X132.329 Y27.514 Z-2.800 F50.000
G3 X133.012 Y27.594 Z-2.800 I0.171 J1.486 K0.000 F100.000
G3 X131.988 Y30.406 Z-2.800 I-0.512 J1.406 K0.000 F100.000
G3 X132.329 Y27.514 Z-2.800 I0.512 J-1.406 K0.000 F100.000
G1 X132.329 Y27.514 Z-3.100 F50.000
G3 X133.012 Y27.594 Z-3.100 I0.171 J1.486 K0.000 F100.000
G3 X131.988 Y30.406 Z-3.100 I-0.512 J1.406 K0.000 F100.000
G3 X132.329 Y27.514 Z-3.100 I0.512 J-1.406 K0.000 F100.000
G0 Z5.000
G0 Z5.000
G0 X132.329 Y27.514
G0 X126.573 Y28.698
G0 X126.573 Y28.698 Z3.000
G1 X126.573 Y28.698 Z-0.700 F50.000
G3 X124.596 Y30.406 Z-0.700 I-1.465 J0.302 K0.000 F100.000
G3 X123.702 Y28.488 Z-0.700 I0.512 J-1.406 K0.000 F100.000
G3 X125.620 Y27.594 Z-0.700 I1.406 J0.512 K0.000 F100.000
G3 X126.573 Y28.698 Z-0.700 I-0.512 J1.406 K0.000 F100.000
G1 X126.573 Y28.698 Z-1.400 F50.000
G3 X124.596 Y30.406 Z-1.400 I-1.465 J0.302 K0.000 F100.000
G3 X123.702 Y28.488 Z-1.400 I0.512 J-1.406 K0.000 F100.000
G3 X125.620 Y27.594 Z-1.400 I1.406 J0.512 K0.000 F100.000
G3 X126.573 Y28.698 Z-1.400 I-0.512 J1.406 K0.000 F100.000
G1 X126.573 Y28.698 Z-2.100 F50.000
G3 X124.596 Y30.406 Z-2.100 I-1.465 J0.302 K0.000 F100.000
G3 X123.702 Y28.488 Z-2.100 I0.512 J-1.406 K0.000 F100.000
G3 X125.620 Y27.594 Z-2.100 I1.406 J0.512 K0.000 F100.000
G3 X126.573 Y28.698 Z-2.100 I-0.512 J1.406 K0.000 F100.000
G1 X126.573 Y28.698 Z-2.800 F50.000
G3 X124.596 Y30.406 Z-2.800 I-1.465 J0.302 K0.000 F100.000
G3 X123.702 Y28.488 Z-2.800 I0.512 J-1.406 K0.000 F100.000
G3 X125.620 Y27.594 Z-2.800 I1.406 J0.512 K0.000 F100.000
G3 X126.573 Y28.698 Z-2.800 I-0.512 J1.406 K0.000 F100.000
G1 X126.573 Y28.698 Z-3.100 F50.000
G3 X124.596 Y30.406 Z-3.100 I-1.465 J0.302 K0.000 F100.000
G3 X123.702 Y28.488 Z-3.100 I0.512 J-1.406 K0.000 F100.000
G3 X125.620 Y27.594 Z-3.100 I1.406 J0.512 K0.000 F100.000
G3 X126.573 Y28.698 Z-3.100 I-0.512 J1.406 K0.000 F100.000
G0 Z5.000
G0 Z5.000
G0 X126.573 Y28.698
G0 X119.211 Y28.949
G0 X119.211 Y28.949 Z3.000
G1 X119.211 Y28.949 Z-0.700 F50.000
G3 X117.204 Y30.406 Z-0.700 I-1.495 J0.051 K0.000 F100.000
G3 X118.228 Y27.594 Z-0.700 I0.512 J-1.406 K0.000 F100.000
G3 X119.211 Y28.949 Z-0.700 I-0.512 J1.406 K0.000 F100.000
G1 X119.211 Y28.949 Z-1.400 F50.000
G3 X117.204 Y30.406 Z-1.400 I-1.495 J0.051 K0.000 F100.000
G3 X118.228 Y27.594 Z-1.400 I0.512 J-1.406 K0.000 F100.000
G3 X119.211 Y28.949 Z-1.400 I-0.512 J1.406 K0.000 F100.000
G1 X119.211 Y28.949 Z-2.100 F50.000
G3 X117.204 Y30.406 Z-2.100 I-1.495 J0.051 K0.000 F100.000
G3 X118.228 Y27.594 Z-2.100 I0.512 J-1.406 K0.000 F100.000
G3 X119.211 Y28.949 Z-2.100 I-0.512 J1.406 K0.000 F100.000
G1 X119.211 Y28.949 Z-2.800 F50.000
G3 X117.204 Y30.406 Z-2.800 I-1.495 J0.051 K0.000 F100.000
G3 X118.228 Y27.594 Z-2.800 I0.512 J-1.406 K0.000 F100.000
G3 X119.211 Y28.949 Z-2.800 I-0.512 J1.406 K0.000 F100.000
G1 X119.211 Y28.949 Z-3.100 F50.000
G3 X117.204 Y30.406 Z-3.100 I-1.495 J0.051 K0.000 F100.000
G3 X118.228 Y27.594 Z-3.100 I0.512 J-1.406 K0.000 F100.000
G3 X119.211 Y28.949 Z-3.100 I-0.512 J1.406 K0.000 F100.000
G0 Z5.000
G0 Z5.000
G0 X119.211 Y28.949
G0 X111.820 Y28.991
G0 X111.820 Y28.991 Z3.000
G1 X111.820 Y28.991 Z-0.700 F50.000
G3 X109.812 Y30.406 Z-0.700 I-1.496 J0.009 K0.000 F100.000
G3 X110.836 Y27.594 Z-0.700 I0.512 J-1.406 K0.000 F100.000
G3 X111.820 Y28.991 Z-0.700 I-0.512 J1.406 K0.000 F100.000
G1 X111.820 Y28.991 Z-1.400 F50.000
G3 X109.812 Y30.406 Z-1.400 I-1.496 J0.009 K0.000 F100.000
G3 X110.836 Y27.594 Z-1.400 I0.512 J-1.406 K0.000 F100.000
G3 X111.820 Y28.991 Z-1.400 I-0.512 J1.406 K0.000 F100.000
G1 X111.820 Y28.991 Z-2.100 F50.000
G3 X109.812 Y30.406 Z-2.100 I-1.496 J0.009 K0.000 F100.000
G3 X110.836 Y27.594 Z-2.100 I0.512 J-1.406 K0.000 F100.000
G3 X111.820 Y28.991 Z-2.100 I-0.512 J1.406 K0.000 F100.000
G1 X111.820 Y28.991 Z-2.800 F50.000
G3 X109.812 Y30.406 Z-2.800 I-1.496 J0.009 K0.000 F100.000
G3 X110.836 Y27.594 Z-2.800 I0.512 J-1.406 K0.000 F100.000
G3 X111.820 Y28.991 Z-2.800 I-0.512 J1.406 K0.000 F100.000
G1 X111.820 Y28.991 Z-3.100 F50.000
G3 X109.812 Y30.406 Z-3.100 I-1.496 J0.009 K0.000 F100.000
G3 X110.836 Y27.594 Z-3.100 I0.512 J-1.406 K0.000 F100.000
G3 X111.820 Y28.991 Z-3.100 I-0.512 J1.406 K0.000 F100.000
G0 Z5.000
G0 Z5.000
G0 X111.820 Y28.991
G0 X103.320 Y28.999
G0 X103.320 Y28.999 Z3.000
G1 X103.320 Y28.999 Z-0.700 F50.000
G3 X101.312 Y30.406 Z-0.700 I-1.496 J0.001 K0.000 F100.000
G3 X100.418 Y28.488 Z-0.700 I0.512 J-1.406 K0.000 F100.000
G3 X102.336 Y27.594 Z-0.700 I1.406 J0.512 K0.000 F100.000
G3 X103.320 Y28.999 Z-0.700 I-0.512 J1.406 K0.000 F100.000
G1 X103.320 Y28.999 Z-1.400 F50.000
G3 X101.312 Y30.406 Z-1.400 I-1.496 J0.001 K0.000 F100.000
G3 X100.418 Y28.488 Z-1.400 I0.512 J-1.406 K0.000 F100.000
G3 X102.336 Y27.594 Z-1.400 I1.406 J0.512 K0.000 F100.000
G3 X103.320 Y28.999 Z-1.400 I-0.512 J1.406 K0.000 F100.000
G1 X103.320 Y28.999 Z-2.100 F50.000
G3 X101.312 Y30.406 Z-2.100 I-1.496 J0.001 K0.000 F100.000
G3 X100.418 Y28.488 Z-2.100 I0.512 J-1.406 K0.000 F100.000
G3 X102.336 Y27.594 Z-2.100 I1.406 J0.512 K0.000 F100.000
G3 X103.320 Y28.999 Z-2.100 I-0.512 J1.406 K0.000 F100.000
G1 X103.320 Y28.999 Z-2.800 F50.000
G3 X101.312 Y30.406 Z-2.800 I-1.496 J0.001 K0.000 F100.000
G3 X100.418 Y28.488 Z-2.800 I0.512 J-1.406 K0.000 F100.000
G3 X102.336 Y27.594 Z-2.800 I1.406 J0.512 K0.000 F100.000
G3 X103.320 Y28.999 Z-2.800 I-0.512 J1.406 K0.000 F100.000
G1 X103.320 Y28.999 Z-3.100 F50.000
G3 X101.312 Y30.406 Z-3.100 I-1.496 J0.001 K0.000 F100.000
G3 X100.418 Y28.488 Z-3.100 I0.512 J-1.406 K0.000 F100.000
G3 X102.336 Y27.594 Z-3.100 I1.406 J0.512 K0.000 F100.000
G3 X103.320 Y28.999 Z-3.100 I-0.512 J1.406 K0.000 F100.000
G0 Z5.000
G0 Z5.000
G0 X103.320 Y28.999
G0 X95.933 Y29.000
G0 X95.933 Y29.000 Z3.000
G1 X95.933 Y29.000 Z-0.700 F50.000
G3 X93.925 Y30.406 Z-0.700 I-1.496 J0.000 K0.000 F100.000
G3 X94.948 Y27.594 Z-0.700 I0.512 J-1.406 K0.000 F100.000
G3 X95.933 Y29.000 Z-0.700 I-0.512 J1.406 K0.000 F100.000
G1 X95.933 Y29.000 Z-1.400 F50.000
G3 X93.925 Y30.406 Z-1.400 I-1.496 J0.000 K0.000 F100.000
G3 X94.948 Y27.594 Z-1.400 I0.512 J-1.406 K0.000 F100.000
G3 X95.933 Y29.000 Z-1.400 I-0.512 J1.406 K0.000 F100.000
G1 X95.933 Y29.000 Z-2.100 F50.000
G3 X93.925 Y30.406 Z-2.100 I-1.496 J0.000 K0.000 F100.000
G3 X94.948 Y27.594 Z-2.100 I0.512 J-1.406 K0.000 F100.000
G3 X95.933 Y29.000 Z-2.100 I-0.512 J1.406 K0.000 F100.000
G1 X95.933 Y29.000 Z-2.800 F50.000
G3 X93.925 Y30.406 Z-2.800 I-1.496 J0.000 K0.000 F100.000
G3 X94.948 Y27.594 Z-2.800 I0.512 J-1.406 K0.000 F100.000
G3 X95.933 Y29.000 Z-2.800 I-0.512 J1.406 K0.000 F100.000
G1 X95.933 Y29.000 Z-3.100 F50.000
G3 X93.925 Y30.406 Z-3.100 I-1.496 J0.000 K0.000 F100.000
G3 X94.948 Y27.594 Z-3.100 I0.512 J-1.406 K0.000 F100.000
G3 X95.933 Y29.000 Z-3.100 I-0.512 J1.406 K0.000 F100.000
G0 Z5.000
G0 Z5.000
G0 X95.933 Y29.000
G0 X88.545 Y29.000
G0 X88.545 Y29.000 Z3.000
G1 X88.545 Y29.000 Z-0.700 F50.000
G3 X86.537 Y30.406 Z-0.700 I-1.496 J0.000 K0.000 F100.000
G3 X85.643 Y28.488 Z-0.700 I0.512 J-1.406 K0.000 F100.000
G3 X87.560 Y27.594 Z-0.700 I1.406 J0.512 K0.000 F100.000
G3 X88.545 Y29.000 Z-0.700 I-0.512 J1.406 K0.000 F100.000
G1 X88.545 Y29.000 Z-1.400 F50.000
G3 X86.537 Y30.406 Z-1.400 I-1.496 J0.000 K0.000 F100.000
G3 X85.643 Y28.488 Z-1.400 I0.512 J-1.406 K0.000 F100.000
G3 X87.560 Y27.594 Z-1.400 I1.406 J0.512 K0.000 F100.000
G3 X88.545 Y29.000 Z-1.400 I-0.512 J1.406 K0.000 F100.000
G1 X88.545 Y29.000 Z-2.100 F50.000
G3 X86.537 Y30.406 Z-2.100 I-1.496 J0.000 K0.000 F100.000
G3 X85.643 Y28.488 Z-2.100 I0.512 J-1.406 K0.000 F100.000
G3 X87.560 Y27.594 Z-2.100 I1.406 J0.512 K0.000 F100.000
G3 X88.545 Y29.000 Z-2.100 I-0.512 J1.406 K0.000 F100.000
G1 X88.545 Y29.000 Z-2.800 F50.000
G3 X86.537 Y30.406 Z-2.800 I-1.496 J0.000 K0.000 F100.000
G3 X85.643 Y28.488 Z-2.800 I0.512 J-1.406 K0.000 F100.000
G3 X87.560 Y27.594 Z-2.800 I1.406 J0.512 K0.000 F100.000
G3 X88.545 Y29.000 Z-2.800 I-0.512 J1.406 K0.000 F100.000
G1 X88.545 Y29.000 Z-3.100 F50.000
G3 X86.537 Y30.406 Z-3.100 I-1.496 J0.000 K0.000 F100.000
G3 X85.643 Y28.488 Z-3.100 I0.512 J-1.406 K0.000 F100.000
G3 X87.560 Y27.594 Z-3.100 I1.406 J0.512 K0.000 F100.000
G3 X88.545 Y29.000 Z-3.100 I-0.512 J1.406 K0.000 F100.000
G0 Z5.000
G0 Z5.000
G0 X88.545 Y29.000
G0 X81.157 Y29.000
G0 X81.157 Y29.000 Z3.000
G1 X81.157 Y29.000 Z-0.700 F50.000
G3 X79.149 Y30.406 Z-0.700 I-1.496 J0.000 K0.000 F100.000
G3 X78.255 Y28.488 Z-0.700 I0.512 J-1.406 K0.000 F100.000
G3 X80.173 Y27.594 Z-0.700 I1.406 J0.512 K0.000 F100.000
G3 X81.157 Y29.000 Z-0.700 I-0.512 J1.406 K0.000 F100.000
G1 X81.157 Y29.000 Z-1.400 F50.000
G3 X79.149 Y30.406 Z-1.400 I-1.496 J0.000 K0.000 F100.000
G3 X78.255 Y28.488 Z-1.400 I0.512 J-1.406 K0.000 F100.000
G3 X80.173 Y27.594 Z-1.400 I1.406 J0.512 K0.000 F100.000
G3 X81.157 Y29.000 Z-1.400 I-0.512 J1.406 K0.000 F100.000
G1 X81.157 Y29.000 Z-2.100 F50.000
G3 X79.149 Y30.406 Z-2.100 I-1.496 J0.000 K0.000 F100.000
G3 X78.255 Y28.488 Z-2.100 I0.512 J-1.406 K0.000 F100.000
G3 X80.173 Y27.594 Z-2.100 I1.406 J0.512 K0.000 F100.000
G3 X81.157 Y29.000 Z-2.100 I-0.512 J1.406 K0.000 F100.000
G1 X81.157 Y29.000 Z-2.800 F50.000
G3 X79.149 Y30.406 Z-2.800 I-1.496 J0.000 K0.000 F100.000
G3 X78.255 Y28.488 Z-2.800 I0.512 J-1.406 K0.000 F100.000
G3 X80.173 Y27.594 Z-2.800 I1.406 J0.512 K0.000 F100.000
G3 X81.157 Y29.000 Z-2.800 I-0.512 J1.406 K0.000 F100.000
G1 X81.157 Y29.000 Z-3.100 F50.000
G3 X79.149 Y30.406 Z-3.100 I-1.496 J0.000 K0.000 F100.000
G3 X78.255 Y28.488 Z-3.100 I0.512 J-1.406 K0.000 F100.000
G3 X80.173 Y27.594 Z-3.100 I1.406 J0.512 K0.000 F100.000
G3 X81.157 Y29.000 Z-3.100 I-0.512 J1.406 K0.000 F100.000
G0 Z5.000
G0 Z5.000
G0 X81.157 Y29.000
G0 X72.657 Y29.000
G0 X72.657 Y29.000 Z3.000
G1 X72.657 Y29.000 Z-0.700 F50.000
G3 X70.649 Y30.406 Z-0.700 I-1.496 J0.000 K0.000 F100.000
G3 X69.755 Y28.488 Z-0.700 I0.512 J-1.406 K0.000 F100.000
G3 X71.673 Y27.594 Z-0.700 I1.406 J0.512 K0.000 F100.000
G3 X72.657 Y29.000 Z-0.700 I-0.512 J1.406 K0.000 F100.000
G1 X72.657 Y29.000 Z-1.400 F50.000
G3 X70.649 Y30.406 Z-1.400 I-1.496 J0.000 K0.000 F100.000
G3 X69.755 Y28.488 Z-1.400 I0.512 J-1.406 K0.000 F100.000
G3 X71.673 Y27.594 Z-1.400 I1.406 J0.512 K0.000 F100.000
G3 X72.657 Y29.000 Z-1.400 I-0.512 J1.406 K0.000 F100.000
G1 X72.657 Y29.000 Z-2.100 F50.000
G3 X70.649 Y30.406 Z-2.100 I-1.496 J0.000 K0.000 F100.000
G3 X69.755 Y28.488 Z-2.100 I0.512 J-1.406 K0.000 F100.000
G3 X71.673 Y27.594 Z-2.100 I1.406 J0.512 K0.000 F100.000
G3 X72.657 Y29.000 Z-2.100 I-0.512 J1.406 K0.000 F100.000
G1 X72.657 Y29.000 Z-2.800 F50.000
G3 X70.649 Y30.406 Z-2.800 I-1.496 J0.000 K0.000 F100.000
G3 X69.755 Y28.488 Z-2.800 I0.512 J-1.406 K0.000 F100.000
G3 X71.673 Y27.594 Z-2.800 I1.406 J0.512 K0.000 F100.000
G3 X72.657 Y29.000 Z-2.800 I-0.512 J1.406 K0.000 F100.000
G1 X72.657 Y29.000 Z-3.100 F50.000
G3 X70.649 Y30.406 Z-3.100 I-1.496 J0.000 K0.000 F100.000
G3 X69.755 Y28.488 Z-3.100 I0.512 J-1.406 K0.000 F100.000
G3 X71.673 Y27.594 Z-3.100 I1.406 J0.512 K0.000 F100.000
G3 X72.657 Y29.000 Z-3.100 I-0.512 J1.406 K0.000 F100.000
G0 Z5.000
G0 Z5.000
G0 X72.657 Y29.000
G0 X64.974 Y29.000
G0 X64.974 Y29.000 Z3.000
G1 X64.974 Y29.000 Z-0.700 F50.000
G3 X62.966 Y30.406 Z-0.700 I-1.496 J0.000 K0.000 F100.000
G3 X62.071 Y28.488 Z-0.700 I0.512 J-1.406 K0.000 F100.000
G3 X63.989 Y27.594 Z-0.700 I1.406 J0.512 K0.000 F100.000
G3 X64.974 Y29.000 Z-0.700 I-0.512 J1.406 K0.000 F100.000
G1 X64.974 Y29.000 Z-1.400 F50.000
G3 X62.966 Y30.406 Z-1.400 I-1.496 J0.000 K0.000 F100.000
G3 X62.071 Y28.488 Z-1.400 I0.512 J-1.406 K0.000 F100.000
G3 X63.989 Y27.594 Z-1.400 I1.406 J0.512 K0.000 F100.000
G3 X64.974 Y29.000 Z-1.400 I-0.512 J1.406 K0.000 F100.000
G1 X64.974 Y29.000 Z-2.100 F50.000
G3 X62.966 Y30.406 Z-2.100 I-1.496 J0.000 K0.000 F100.000
G3 X62.071 Y28.488 Z-2.100 I0.512 J-1.406 K0.000 F100.000
G3 X63.989 Y27.594 Z-2.100 I1.406 J0.512 K0.000 F100.000
G3 X64.974 Y29.000 Z-2.100 I-0.512 J1.406 K0.000 F100.000
G1 X64.974 Y29.000 Z-2.800 F50.000
G3 X62.966 Y30.406 Z-2.800 I-1.496 J0.000 K0.000 F100.000
G3 X62.071 Y28.488 Z-2.800 I0.512 J-1.406 K0.000 F100.000
G3 X63.989 Y27.594 Z-2.800 I1.406 J0.512 K0.000 F100.000
G3 X64.974 Y29.000 Z-2.800 I-0.512 J1.406 K0.000 F100.000
G1 X64.974 Y29.000 Z-3.100 F50.000
G3 X62.966 Y30.406 Z-3.100 I-1.496 J0.000 K0.000 F100.000
G3 X62.071 Y28.488 Z-3.100 I0.512 J-1.406 K0.000 F100.000
G3 X63.989 Y27.594 Z-3.100 I1.406 J0.512 K0.000 F100.000
G3 X64.974 Y29.000 Z-3.100 I-0.512 J1.406 K0.000 F100.000
G0 Z5.000
G0 Z5.000
G0 X64.974 Y29.000
G0 X57.290 Y29.000
G0 X57.290 Y29.000 Z3.000
G1 X57.290 Y29.000 Z-0.700 F50.000
G3 X55.282 Y30.406 Z-0.700 I-1.496 J0.000 K0.000 F100.000
G3 X54.388 Y28.488 Z-0.700 I0.512 J-1.406 K0.000 F100.000
G3 X56.305 Y27.594 Z-0.700 I1.406 J0.512 K0.000 F100.000
G3 X57.290 Y29.000 Z-0.700 I-0.512 J1.406 K0.000 F100.000
G1 X57.290 Y29.000 Z-1.400 F50.000
G3 X55.282 Y30.406 Z-1.400 I-1.496 J0.000 K0.000 F100.000
G3 X54.388 Y28.488 Z-1.400 I0.512 J-1.406 K0.000 F100.000
G3 X56.305 Y27.594 Z-1.400 I1.406 J0.512 K0.000 F100.000
G3 X57.290 Y29.000 Z-1.400 I-0.512 J1.406 K0.000 F100.000
G1 X57.290 Y29.000 Z-2.100 F50.000
G3 X55.282 Y30.406 Z-2.100 I-1.496 J0.000 K0.000 F100.000
G3 X54.388 Y28.488 Z-2.100 I0.512 J-1.406 K0.000 F100.000
G3 X56.305 Y27.594 Z-2.100 I1.406 J0.512 K0.000 F100.000
G3 X57.290 Y29.000 Z-2.100 I-0.512 J1.406 K0.000 F100.000
G1 X57.290 Y29.000 Z-2.800 F50.000
G3 X55.282 Y30.406 Z-2.800 I-1.496 J0.000 K0.000 F100.000
G3 X54.388 Y28.488 Z-2.800 I0.512 J-1.406 K0.000 F100.000
G3 X56.305 Y27.594 Z-2.800 I1.406 J0.512 K0.000 F100.000
G3 X57.290 Y29.000 Z-2.800 I-0.512 J1.406 K0.000 F100.000
G1 X57.290 Y29.000 Z-3.100 F50.000
G3 X55.282 Y30.406 Z-3.100 I-1.496 J0.000 K0.000 F100.000
G3 X54.388 Y28.488 Z-3.100 I0.512 J-1.406 K0.000 F100.000
G3 X56.305 Y27.594 Z-3.100 I1.406 J0.512 K0.000 F100.000
G3 X57.290 Y29.000 Z-3.100 I-0.512 J1.406 K0.000 F100.000
G0 Z5.000
G0 Z5.000
G0 X57.290 Y29.000
G0 X49.606
G0 X49.606 Z3.000
G1 X49.606 Y29.000 Z-0.700 F50.000
G3 X47.598 Y30.406 Z-0.700 I-1.496 J0.000 K0.000 F100.000
G3 X46.704 Y28.488 Z-0.700 I0.512 J-1.406 K0.000 F100.000
G3 X48.622 Y27.594 Z-0.700 I1.406 J0.512 K0.000 F100.000
G3 X49.606 Y29.000 Z-0.700 I-0.512 J1.406 K0.000 F100.000
G1 X49.606 Y29.000 Z-1.400 F50.000
G3 X47.598 Y30.406 Z-1.400 I-1.496 J0.000 K0.000 F100.000
G3 X46.704 Y28.488 Z-1.400 I0.512 J-1.406 K0.000 F100.000
G3 X48.622 Y27.594 Z-1.400 I1.406 J0.512 K0.000 F100.000
G3 X49.606 Y29.000 Z-1.400 I-0.512 J1.406 K0.000 F100.000
G1 X49.606 Y29.000 Z-2.100 F50.000
G3 X47.598 Y30.406 Z-2.100 I-1.496 J0.000 K0.000 F100.000
G3 X46.704 Y28.488 Z-2.100 I0.512 J-1.406 K0.000 F100.000
G3 X48.622 Y27.594 Z-2.100 I1.406 J0.512 K0.000 F100.000
G3 X49.606 Y29.000 Z-2.100 I-0.512 J1.406 K0.000 F100.000
G1 X49.606 Y29.000 Z-2.800 F50.000
G3 X47.598 Y30.406 Z-2.800 I-1.496 J0.000 K0.000 F100.000
G3 X46.704 Y28.488 Z-2.800 I0.512 J-1.406 K0.000 F100.000
G3 X48.622 Y27.594 Z-2.800 I1.406 J0.512 K0.000 F100.000
G3 X49.606 Y29.000 Z-2.800 I-0.512 J1.406 K0.000 F100.000
G1 X49.606 Y29.000 Z-3.100 F50.000
G3 X47.598 Y30.406 Z-3.100 I-1.496 J0.000 K0.000 F100.000
G3 X46.704 Y28.488 Z-3.100 I0.512 J-1.406 K0.000 F100.000
G3 X48.622 Y27.594 Z-3.100 I1.406 J0.512 K0.000 F100.000
G3 X49.606 Y29.000 Z-3.100 I-0.512 J1.406 K0.000 F100.000
G0 Z5.000
G0 Z5.000
G0 X49.606 Y29.000
G0 X41.106
G0 X41.106 Z3.000
G1 X41.106 Y29.000 Z-0.700 F50.000
G3 X39.098 Y30.406 Z-0.700 I-1.496 J0.000 K0.000 F100.000
G3 X40.122 Y27.594 Z-0.700 I0.512 J-1.406 K0.000 F100.000
G3 X41.106 Y29.000 Z-0.700 I-0.512 J1.406 K0.000 F100.000
G1 X41.106 Y29.000 Z-1.400 F50.000
G3 X39.098 Y30.406 Z-1.400 I-1.496 J0.000 K0.000 F100.000
G3 X40.122 Y27.594 Z-1.400 I0.512 J-1.406 K0.000 F100.000
G3 X41.106 Y29.000 Z-1.400 I-0.512 J1.406 K0.000 F100.000
G1 X41.106 Y29.000 Z-2.100 F50.000
G3 X39.098 Y30.406 Z-2.100 I-1.496 J0.000 K0.000 F100.000
G3 X40.122 Y27.594 Z-2.100 I0.512 J-1.406 K0.000 F100.000
G3 X41.106 Y29.000 Z-2.100 I-0.512 J1.406 K0.000 F100.000
G1 X41.106 Y29.000 Z-2.800 F50.000
G3 X39.098 Y30.406 Z-2.800 I-1.496 J0.000 K0.000 F100.000
G3 X40.122 Y27.594 Z-2.800 I0.512 J-1.406 K0.000 F100.000
G3 X41.106 Y29.000 Z-2.800 I-0.512 J1.406 K0.000 F100.000
G1 X41.106 Y29.000 Z-3.100 F50.000
G3 X39.098 Y30.406 Z-3.100 I-1.496 J0.000 K0.000 F100.000
G3 X40.122 Y27.594 Z-3.100 I0.512 J-1.406 K0.000 F100.000
G3 X41.106 Y29.000 Z-3.100 I-0.512 J1.406 K0.000 F100.000
G0 Z5.000
G0 Z5.000
G0 X41.106 Y29.000
G0 X33.736
G0 X33.736 Z3.000
G1 X33.736 Y29.000 Z-0.700 F50.000
G3 X31.728 Y30.406 Z-0.700 I-1.496 J-0.000 K0.000 F100.000
G3 X30.834 Y28.488 Z-0.700 I0.512 J-1.406 K0.000 F100.000
G3 X32.752 Y27.594 Z-0.700 I1.406 J0.512 K0.000 F100.000
G3 X33.736 Y29.000 Z-0.700 I-0.512 J1.406 K0.000 F100.000
G1 X33.736 Y29.000 Z-1.400 F50.000
G3 X31.728 Y30.406 Z-1.400 I-1.496 J-0.000 K0.000 F100.000
G3 X30.834 Y28.488 Z-1.400 I0.512 J-1.406 K0.000 F100.000
G3 X32.752 Y27.594 Z-1.400 I1.406 J0.512 K0.000 F100.000
G3 X33.736 Y29.000 Z-1.400 I-0.512 J1.406 K0.000 F100.000
G1 X33.736 Y29.000 Z-2.100 F50.000
G3 X31.728 Y30.406 Z-2.100 I-1.496 J-0.000 K0.000 F100.000
G3 X30.834 Y28.488 Z-2.100 I0.512 J-1.406 K0.000 F100.000
G3 X32.752 Y27.594 Z-2.100 I1.406 J0.512 K0.000 F100.000
G3 X33.736 Y29.000 Z-2.100 I-0.512 J1.406 K0.000 F100.000
G1 X33.736 Y29.000 Z-2.800 F50.000
G3 X31.728 Y30.406 Z-2.800 I-1.496 J-0.000 K0.000 F100.000
G3 X30.834 Y28.488 Z-2.800 I0.512 J-1.406 K0.000 F100.000
G3 X32.752 Y27.594 Z-2.800 I1.406 J0.512 K0.000 F100.000
G3 X33.736 Y29.000 Z-2.800 I-0.512 J1.406 K0.000 F100.000
G1 X33.736 Y29.000 Z-3.100 F50.000
G3 X31.728 Y30.406 Z-3.100 I-1.496 J-0.000 K0.000 F100.000
G3 X30.834 Y28.488 Z-3.100 I0.512 J-1.406 K0.000 F100.000
G3 X32.752 Y27.594 Z-3.100 I1.406 J0.512 K0.000 F100.000
G3 X33.736 Y29.000 Z-3.100 I-0.512 J1.406 K0.000 F100.000
G0 Z5.000
G0 Z5.000
G0 X33.736 Y29.000
G0 X26.366
G0 X26.366 Z3.000
G1 X26.366 Y29.000 Z-0.700 F50.000
G3 X24.358 Y30.406 Z-0.700 I-1.496 J0.000 K0.000 F100.000
G3 X25.382 Y27.594 Z-0.700 I0.512 J-1.406 K0.000 F100.000
G3 X26.366 Y29.000 Z-0.700 I-0.512 J1.406 K0.000 F100.000
G1 X26.366 Y29.000 Z-1.400 F50.000
G3 X24.358 Y30.406 Z-1.400 I-1.496 J0.000 K0.000 F100.000
G3 X25.382 Y27.594 Z-1.400 I0.512 J-1.406 K0.000 F100.000
G3 X26.366 Y29.000 Z-1.400 I-0.512 J1.406 K0.000 F100.000
G1 X26.366 Y29.000 Z-2.100 F50.000
G3 X24.358 Y30.406 Z-2.100 I-1.496 J0.000 K0.000 F100.000
G3 X25.382 Y27.594 Z-2.100 I0.512 J-1.406 K0.000 F100.000
G3 X26.366 Y29.000 Z-2.100 I-0.512 J1.406 K0.000 F100.000
G1 X26.366 Y29.000 Z-2.800 F50.000
G3 X24.358 Y30.406 Z-2.800 I-1.496 J0.000 K0.000 F100.000
G3 X25.382 Y27.594 Z-2.800 I0.512 J-1.406 K0.000 F100.000
G3 X26.366 Y29.000 Z-2.800 I-0.512 J1.406 K0.000 F100.000
G1 X26.366 Y29.000 Z-3.100 F50.000
G3 X24.358 Y30.406 Z-3.100 I-1.496 J0.000 K0.000 F100.000
G3 X25.382 Y27.594 Z-3.100 I0.512 J-1.406 K0.000 F100.000
G3 X26.366 Y29.000 Z-3.100 I-0.512 J1.406 K0.000 F100.000
G0 Z5.000
G0 Z5.000
G0 X26.366 Y29.000
G0 X18.996
G0 X18.996 Z3.000
G1 X18.996 Y29.000 Z-0.700 F50.000
G3 X16.988 Y30.406 Z-0.700 I-1.496 J0.000 K0.000 F100.000
G3 X18.012 Y27.594 Z-0.700 I0.512 J-1.406 K0.000 F100.000
G3 X18.996 Y29.000 Z-0.700 I-0.512 J1.406 K0.000 F100.000
G1 X18.996 Y29.000 Z-1.400 F50.000
G3 X16.988 Y30.406 Z-1.400 I-1.496 J0.000 K0.000 F100.000
G3 X18.012 Y27.594 Z-1.400 I0.512 J-1.406 K0.000 F100.000
G3 X18.996 Y29.000 Z-1.400 I-0.512 J1.406 K0.000 F100.000
G1 X18.996 Y29.000 Z-2.100 F50.000
G3 X16.988 Y30.406 Z-2.100 I-1.496 J0.000 K0.000 F100.000
G3 X18.012 Y27.594 Z-2.100 I0.512 J-1.406 K0.000 F100.000
G3 X18.996 Y29.000 Z-2.100 I-0.512 J1.406 K0.000 F100.000
G1 X18.996 Y29.000 Z-2.800 F50.000
G3 X16.988 Y30.406 Z-2.800 I-1.496 J0.000 K0.000 F100.000
G3 X18.012 Y27.594 Z-2.800 I0.512 J-1.406 K0.000 F100.000
G3 X18.996 Y29.000 Z-2.800 I-0.512 J1.406 K0.000 F100.000
G1 X18.996 Y29.000 Z-3.100 F50.000
G3 X16.988 Y30.406 Z-3.100 I-1.496 J0.000 K0.000 F100.000
G3 X18.012 Y27.594 Z-3.100 I0.512 J-1.406 K0.000 F100.000
G3 X18.996 Y29.000 Z-3.100 I-0.512 J1.406 K0.000 F100.000
G0 Z5.000
G0 Z5.000
G0 X18.996 Y29.000
G0 X30.916 Y5.530
G0 X30.916 Y5.530 Z3.000
G1 X30.916 Y5.530 Z-0.700 F50.000
G3 X30.888 Y5.515 Z-0.700 I0.269 J-0.530 K0.000 F100.000
G3 X30.670 Y4.703 Z-0.700 I0.297 J-0.515 K0.000 F100.000
G3 X31.482 Y4.485 Z-0.700 I0.515 J0.297 K0.000 F100.000
G3 X30.916 Y5.530 Z-0.700 I-0.297 J0.515 K0.000 F100.000
G1 X30.916 Y5.530 Z-1.400 F50.000
G3 X30.888 Y5.515 Z-1.400 I0.269 J-0.530 K0.000 F100.000
G3 X30.670 Y4.703 Z-1.400 I0.297 J-0.515 K0.000 F100.000
G3 X31.482 Y4.485 Z-1.400 I0.515 J0.297 K0.000 F100.000
G3 X30.916 Y5.530 Z-1.400 I-0.297 J0.515 K0.000 F100.000
G1 X30.916 Y5.530 Z-2.100 F50.000
G3 X30.888 Y5.515 Z-2.100 I0.269 J-0.530 K0.000 F100.000
G3 X30.670 Y4.703 Z-2.100 I0.297 J-0.515 K0.000 F100.000
G3 X31.482 Y4.485 Z-2.100 I0.515 J0.297 K0.000 F100.000
G3 X30.916 Y5.530 Z-2.100 I-0.297 J0.515 K0.000 F100.000
G1 X30.916 Y5.530 Z-2.800 F50.000
G3 X30.888 Y5.515 Z-2.800 I0.269 J-0.530 K0.000 F100.000
G3 X30.670 Y4.703 Z-2.800 I0.297 J-0.515 K0.000 F100.000
G3 X31.482 Y4.485 Z-2.800 I0.515 J0.297 K0.000 F100.000
G3 X30.916 Y5.530 Z-2.800 I-0.297 J0.515 K0.000 F100.000
G1 X30.916 Y5.530 Z-3.100 F50.000
G3 X30.888 Y5.515 Z-3.100 I0.269 J-0.530 K0.000 F100.000
G3 X30.670 Y4.703 Z-3.100 I0.297 J-0.515 K0.000 F100.000
G3 X31.482 Y4.485 Z-3.100 I0.515 J0.297 K0.000 F100.000
G3 X30.916 Y5.530 Z-3.100 I-0.297 J0.515 K0.000 F100.000
G0 Z5.000
G0 Z5.000
G0 X30.916 Y5.530
G0 X118.221 Y5.004
G0 X118.221 Y5.004 Z3.000
G1 X118.221 Y5.004 Z-0.700 F50.000
G3 X119.112 Y4.485 Z-0.700 I0.594 J-0.004 K0.000 F100.000
G3 X119.330 Y5.297 Z-0.700 I-0.297 J0.515 K0.000 F100.000
G3 X118.518 Y5.515 Z-0.700 I-0.515 J-0.297 K0.000 F100.000
G3 X118.221 Y5.004 Z-0.700 I0.297 J-0.515 K0.000 F100.000
G1 X118.221 Y5.004 Z-1.400 F50.000
G3 X119.112 Y4.485 Z-1.400 I0.594 J-0.004 K0.000 F100.000
G3 X119.330 Y5.297 Z-1.400 I-0.297 J0.515 K0.000 F100.000
G3 X118.518 Y5.515 Z-1.400 I-0.515 J-0.297 K0.000 F100.000
G3 X118.221 Y5.004 Z-1.400 I0.297 J-0.515 K0.000 F100.000
G1 X118.221 Y5.004 Z-2.100 F50.000
G3 X119.112 Y4.485 Z-2.100 I0.594 J-0.004 K0.000 F100.000
G3 X119.330 Y5.297 Z-2.100 I-0.297 J0.515 K0.000 F100.000
G3 X118.518 Y5.515 Z-2.100 I-0.515 J-0.297 K0.000 F100.000
G3 X118.221 Y5.004 Z-2.100 I0.297 J-0.515 K0.000 F100.000
G1 X118.221 Y5.004 Z-2.800 F50.000
G3 X119.112 Y4.485 Z-2.800 I0.594 J-0.004 K0.000 F100.000
G3 X119.330 Y5.297 Z-2.800 I-0.297 J0.515 K0.000 F100.000
G3 X118.518 Y5.515 Z-2.800 I-0.515 J-0.297 K0.000 F100.000
G3 X118.221 Y5.004 Z-2.800 I0.297 J-0.515 K0.000 F100.000
G1 X118.221 Y5.004 Z-3.100 F50.000
G3 X119.112 Y4.485 Z-3.100 I0.594 J-0.004 K0.000 F100.000
G3 X119.330 Y5.297 Z-3.100 I-0.297 J0.515 K0.000 F100.000
G3 X118.518 Y5.515 Z-3.100 I-0.515 J-0.297 K0.000 F100.000
G3 X118.221 Y5.004 Z-3.100 I0.297 J-0.515 K0.000 F100.000
G0 Z5.000
(Finish operation: Profile)
(Begin operation: Profile001)
(Path: Profile001)
(Profile001)
(Compensated Tool Path. Diameter: 2.0)
G0 Z5.000
G0 X18.771 Y17.271
G0 Z3.000
G1 X18.771 Y17.271 Z-0.700 F50.000
G2 X19.246 Y16.427 Z-0.700 I-1.271 J-1.271 K0.000 F100.000
G2 X15.754 Y15.573 Z-0.700 I-1.746 J-0.427 K0.000 F100.000
G2 X18.771 Y17.271 Z-0.700 I1.746 J0.427 K0.000 F100.000
G1 X18.771 Y17.271 Z-1.200 F50.000
G2 X19.246 Y16.427 Z-1.200 I-1.271 J-1.271 K0.000 F100.000
G2 X15.754 Y15.573 Z-1.200 I-1.746 J-0.427 K0.000 F100.000
G2 X18.771 Y17.271 Z-1.200 I1.746 J0.427 K0.000 F100.000
G0 Z5.000
G0 Z5.000
G0 X18.771 Y17.271
G0 X23.111 Y16.366
G0 X23.111 Y16.366 Z3.000
G1 X23.111 Y16.366 Z-0.700 F50.000
G2 X26.615 Y16.427 Z-0.700 I1.759 J-0.366 K0.000 F100.000
G2 X23.124 Y15.573 Z-0.700 I-1.746 J-0.427 K0.000 F100.000
G2 X23.111 Y16.366 Z-0.700 I1.746 J0.427 K0.000 F100.000
G1 X23.111 Y16.366 Z-1.200 F50.000
G2 X26.615 Y16.427 Z-1.200 I1.759 J-0.366 K0.000 F100.000
G2 X23.124 Y15.573 Z-1.200 I-1.746 J-0.427 K0.000 F100.000
G2 X23.111 Y16.366 Z-1.200 I1.746 J0.427 K0.000 F100.000
G0 Z5.000
G0 Z5.000
G0 X23.111 Y16.366
G0 X30.444 Y16.072
G0 X30.444 Y16.072 Z3.000
G1 X30.444 Y16.072 Z-0.700 F50.000
G2 X33.985 Y16.427 Z-0.700 I1.795 J-0.072 K0.000 F100.000
G2 X30.494 Y15.573 Z-0.700 I-1.746 J-0.427 K0.000 F100.000
G2 X30.444 Y16.072 Z-0.700 I1.746 J0.427 K0.000 F100.000
G1 X30.444 Y16.072 Z-1.200 F50.000
G2 X33.985 Y16.427 Z-1.200 I1.795 J-0.072 K0.000 F100.000
G2 X30.494 Y15.573 Z-1.200 I-1.746 J-0.427 K0.000 F100.000
G2 X30.444 Y16.072 Z-1.200 I1.746 J0.427 K0.000 F100.000
G0 Z5.000
G0 Z5.000
G0 X30.444 Y16.072
G0 X37.813 Y16.014
G0 X37.813 Y16.014 Z3.000
G1 X37.813 Y16.014 Z-0.700 F50.000
G2 X39.464 Y17.791 Z-0.700 I1.797 J-0.014 K0.000 F100.000
G2 X39.760 Y14.210 Z-0.700 I0.146 J-1.791 K0.000 F100.000
G2 X37.813 Y16.014 Z-0.700 I-0.150 J1.790 K0.000 F100.000
G1 X37.813 Y16.014 Z-1.200 F50.000
G2 X39.464 Y17.791 Z-1.200 I1.797 J-0.014 K0.000 F100.000
G2 X39.760 Y14.210 Z-1.200 I0.146 J-1.791 K0.000 F100.000
G2 X37.813 Y16.014 Z-1.200 I-0.150 J1.790 K0.000 F100.000
G0 Z5.000
G0 Z5.000
G0 X37.813 Y16.014
G0 X46.313 Y16.002
G0 X46.313 Y16.002 Z3.000
G1 X46.313 Y16.002 Z-0.700 F50.000
G2 X47.964 Y17.791 Z-0.700 I1.797 J-0.002 K0.000 F100.000
G2 X48.260 Y14.210 Z-0.700 I0.146 J-1.791 K0.000 F100.000
G2 X46.313 Y16.002 Z-0.700 I-0.150 J1.790 K0.000 F100.000
G1 X46.313 Y16.002 Z-1.200 F50.000
G2 X47.964 Y17.791 Z-1.200 I1.797 J-0.002 K0.000 F100.000
G2 X48.260 Y14.210 Z-1.200 I0.146 J-1.791 K0.000 F100.000
G2 X46.313 Y16.002 Z-1.200 I-0.150 J1.790 K0.000 F100.000
G0 Z5.000
G0 Z5.000
G0 X46.313 Y16.002
G0 X53.997 Y16.000
G0 X53.997 Y16.000 Z3.000
G1 X53.997 Y16.000 Z-0.700 F50.000
G2 X55.367 Y17.746 Z-0.700 I1.797 J-0.000 K0.000 F100.000
G2 X57.539 Y16.427 Z-0.700 I0.427 J-1.746 K0.000 F100.000
G2 X56.220 Y14.254 Z-0.700 I-1.746 J-0.427 K0.000 F100.000
G2 X53.997 Y16.000 Z-0.700 I-0.427 J1.746 K0.000 F100.000
G1 X53.997 Y16.000 Z-1.200 F50.000
G2 X55.367 Y17.746 Z-1.200 I1.797 J-0.000 K0.000 F100.000
G2 X57.539 Y16.427 Z-1.200 I0.427 J-1.746 K0.000 F100.000
G2 X56.220 Y14.254 Z-1.200 I-1.746 J-0.427 K0.000 F100.000
G2 X53.997 Y16.000 Z-1.200 I-0.427 J1.746 K0.000 F100.000
G0 Z5.000
G0 Z5.000
G0 X53.997 Y16.000
G0 X61.681 Y16.000
G0 X61.681 Y16.000 Z3.000
G1 X61.681 Y16.000 Z-0.700 F50.000
G2 X63.331 Y17.791 Z-0.700 I1.797 J-0.000 K0.000 F100.000
G2 X63.628 Y14.210 Z-0.700 I0.146 J-1.791 K0.000 F100.000
G2 X61.681 Y16.000 Z-0.700 I-0.150 J1.790 K0.000 F100.000
G1 X61.681 Y16.000 Z-1.200 F50.000
G2 X63.331 Y17.791 Z-1.200 I1.797 J-0.000 K0.000 F100.000
G2 X63.628 Y14.210 Z-1.200 I0.146 J-1.791 K0.000 F100.000
G2 X61.681 Y16.000 Z-1.200 I-0.150 J1.790 K0.000 F100.000
G0 Z5.000
G0 Z5.000
G0 X61.681 Y16.000
G0 X69.365 Y16.000
G0 X69.365 Y16.000 Z3.000
G1 X69.365 Y16.000 Z-0.700 F50.000
G2 X71.015 Y17.791 Z-0.700 I1.797 J-0.000 K0.000 F100.000
G2 X71.312 Y14.210 Z-0.700 I0.146 J-1.791 K0.000 F100.000
G2 X69.365 Y16.000 Z-0.700 I-0.150 J1.790 K0.000 F100.000
G1 X69.365 Y16.000 Z-1.200 F50.000
G2 X71.015 Y17.791 Z-1.200 I1.797 J-0.000 K0.000 F100.000
G2 X71.312 Y14.210 Z-1.200 I0.146 J-1.791 K0.000 F100.000
G2 X69.365 Y16.000 Z-1.200 I-0.150 J1.790 K0.000 F100.000
G0 Z5.000
G0 Z5.000
G0 X69.365 Y16.000
G0 X77.865 Y16.000
G0 X77.865 Y16.000 Z3.000
G1 X77.865 Y16.000 Z-0.700 F50.000
G2 X77.889 Y16.296 Z-0.700 I1.797 J0.000 K0.000 F100.000
G2 X81.453 Y15.866 Z-0.700 I1.772 J-0.296 K0.000 F100.000
G1 X81.410 Y15.588 Z-0.700 F100.000
G2 X77.865 Y16.000 Z-0.700 I-1.749 J0.412 K0.000 F100.000
G1 X77.865 Y16.000 Z-1.200 F50.000
G2 X77.889 Y16.296 Z-1.200 I1.797 J0.000 K0.000 F100.000
G2 X81.453 Y15.866 Z-1.200 I1.772 J-0.296 K0.000 F100.000
G1 X81.410 Y15.588 Z-1.200 F100.000
G2 X77.865 Y16.000 Z-1.200 I-1.749 J0.412 K0.000 F100.000
G0 Z5.000
G0 Z5.000
G0 X77.865 Y16.000
G0 X85.252 Y16.000
G0 X85.252 Y16.000 Z3.000
G1 X85.252 Y16.000 Z-0.700 F50.000
G2 X86.902 Y17.791 Z-0.700 I1.797 J-0.000 K0.000 F100.000
G2 X87.199 Y14.210 Z-0.700 I0.146 J-1.791 K0.000 F100.000
G2 X85.252 Y16.000 Z-0.700 I-0.150 J1.790 K0.000 F100.000
G1 X85.252 Y16.000 Z-1.200 F50.000
G2 X86.902 Y17.791 Z-1.200 I1.797 J-0.000 K0.000 F100.000
G2 X87.199 Y14.210 Z-1.200 I0.146 J-1.791 K0.000 F100.000
G2 X85.252 Y16.000 Z-1.200 I-0.150 J1.790 K0.000 F100.000
G0 Z5.000
G0 Z5.000
G0 X85.252 Y16.000
G0 X92.640 Y16.000
G0 X92.640 Y16.000 Z3.000
G1 X92.640 Y16.000 Z-0.700 F50.000
G2 X92.664 Y16.296 Z-0.700 I1.797 J0.000 K0.000 F100.000
G2 X96.228 Y15.866 Z-0.700 I1.772 J-0.296 K0.000 F100.000
G1 X96.185 Y15.588 Z-0.700 F100.000
G2 X92.640 Y16.000 Z-0.700 I-1.749 J0.412 K0.000 F100.000
G1 X92.640 Y16.000 Z-1.200 F50.000
G2 X92.664 Y16.296 Z-1.200 I1.797 J0.000 K0.000 F100.000
G2 X96.228 Y15.866 Z-1.200 I1.772 J-0.296 K0.000 F100.000
G1 X96.185 Y15.588 Z-1.200 F100.000
G2 X92.640 Y16.000 Z-1.200 I-1.749 J0.412 K0.000 F100.000
G0 Z5.000
G0 Z5.000
G0 X92.640 Y16.000
G0 X100.027 Y16.000
G0 X100.027 Y16.000 Z3.000
G1 X100.027 Y16.000 Z-0.700 F50.000
G2 X101.678 Y17.791 Z-0.700 I1.797 J-0.000 K0.000 F100.000
G2 X101.974 Y14.210 Z-0.700 I0.146 J-1.791 K0.000 F100.000
G2 X100.027 Y16.000 Z-0.700 I-0.150 J1.790 K0.000 F100.000
G1 X100.027 Y16.000 Z-1.200 F50.000
G2 X101.678 Y17.791 Z-1.200 I1.797 J-0.000 K0.000 F100.000
G2 X101.974 Y14.210 Z-1.200 I0.146 J-1.791 K0.000 F100.000
G2 X100.027 Y16.000 Z-1.200 I-0.150 J1.790 K0.000 F100.000
G0 Z5.000
G0 Z5.000
G0 X100.027 Y16.000
G0 X108.527 Y16.000
G0 X108.527 Y16.000 Z3.000
G1 X108.527 Y16.000 Z-0.700 F50.000
G2 X112.069 Y16.427 Z-0.700 I1.797 J-0.000 K0.000 F100.000
G2 X108.578 Y15.573 Z-0.700 I-1.746 J-0.427 K0.000 F100.000
G2 X108.527 Y16.000 Z-0.700 I1.746 J0.427 K0.000 F100.000
G1 X108.527 Y16.000 Z-1.200 F50.000
G2 X112.069 Y16.427 Z-1.200 I1.797 J-0.000 K0.000 F100.000
G2 X108.578 Y15.573 Z-1.200 I-1.746 J-0.427 K0.000 F100.000
G2 X108.527 Y16.000 Z-1.200 I1.746 J0.427 K0.000 F100.000
G0 Z5.000
G0 Z5.000
G0 X108.527 Y16.000
G0 X115.919 Y16.000
G0 X115.919 Y16.000 Z3.000
G1 X115.919 Y16.000 Z-0.700 F50.000
G2 X119.461 Y16.427 Z-0.700 I1.797 J-0.000 K0.000 F100.000
G2 X115.970 Y15.573 Z-0.700 I-1.746 J-0.427 K0.000 F100.000
G2 X115.919 Y16.000 Z-0.700 I1.746 J0.427 K0.000 F100.000
G1 X115.919 Y16.000 Z-1.200 F50.000
G2 X119.461 Y16.427 Z-1.200 I1.797 J-0.000 K0.000 F100.000
G2 X115.970 Y15.573 Z-1.200 I-1.746 J-0.427 K0.000 F100.000
G2 X115.919 Y16.000 Z-1.200 I1.746 J0.427 K0.000 F100.000
G0 Z5.000
G0 Z5.000
G0 X115.919 Y16.000
G0 X123.311 Y16.000
G0 X123.311 Y16.000 Z3.000
G1 X123.311 Y16.000 Z-0.700 F50.000
G2 X124.962 Y17.791 Z-0.700 I1.797 J0.000 K0.000 F100.000
G2 X125.258 Y14.210 Z-0.700 I0.146 J-1.791 K0.000 F100.000
G2 X123.311 Y16.000 Z-0.700 I-0.150 J1.790 K0.000 F100.000
G1 X123.311 Y16.000 Z-1.200 F50.000
G2 X124.962 Y17.791 Z-1.200 I1.797 J0.000 K0.000 F100.000
G2 X125.258 Y14.210 Z-1.200 I0.146 J-1.791 K0.000 F100.000
G2 X123.311 Y16.000 Z-1.200 I-0.150 J1.790 K0.000 F100.000
G0 Z5.000
G0 Z5.000
G0 X123.311 Y16.000
G0 X130.703 Y16.000
G0 X130.703 Y16.000 Z3.000
G1 X130.703 Y16.000 Z-0.700 F50.000
G2 X132.354 Y17.791 Z-0.700 I1.797 J0.000 K0.000 F100.000
G2 X132.650 Y14.210 Z-0.700 I0.146 J-1.791 K0.000 F100.000
G2 X130.703 Y16.000 Z-0.700 I-0.150 J1.790 K0.000 F100.000
G1 X130.703 Y16.000 Z-1.200 F50.000
G2 X132.354 Y17.791 Z-1.200 I1.797 J0.000 K0.000 F100.000
G2 X132.650 Y14.210 Z-1.200 I0.146 J-1.791 K0.000 F100.000
G2 X130.703 Y16.000 Z-1.200 I-0.150 J1.790 K0.000 F100.000
G0 Z5.000
G0 Z5.000
G0 X130.703 Y16.000
G0 X132.254 Y27.220
G0 X132.254 Y27.220 Z3.000
G1 X132.254 Y27.220 Z-0.700 F50.000
G2 X132.354 Y30.791 Z-0.700 I0.246 J1.780 K0.000 F100.000
G2 X132.650 Y27.210 Z-0.700 I0.146 J-1.791 K0.000 F100.000
G2 X132.254 Y27.220 Z-0.700 I-0.150 J1.790 K0.000 F100.000
G1 X132.254 Y27.220 Z-1.200 F50.000
G2 X132.354 Y30.791 Z-1.200 I0.246 J1.780 K0.000 F100.000
G2 X132.650 Y27.210 Z-1.200 I0.146 J-1.791 K0.000 F100.000
G2 X132.254 Y27.220 Z-1.200 I-0.150 J1.790 K0.000 F100.000
G0 Z5.000
G0 Z5.000
G0 X132.254 Y27.220
G0 X126.852 Y28.566
G0 X126.852 Y28.566 Z3.000
G1 X126.852 Y28.566 Z-0.700 F50.000
G2 X125.258 Y27.210 Z-0.700 I-1.743 J0.434 K0.000 F100.000
G2 X123.318 Y28.852 Z-0.700 I-0.150 J1.790 K0.000 F100.000
G2 X124.962 Y30.791 Z-0.700 I1.791 J0.148 K0.000 F100.000
G2 X126.852 Y28.566 Z-0.700 I0.146 J-1.791 K0.000 F100.000
G1 X126.852 Y28.566 Z-1.200 F50.000
G2 X125.258 Y27.210 Z-1.200 I-1.743 J0.434 K0.000 F100.000
G2 X123.318 Y28.852 Z-1.200 I-0.150 J1.790 K0.000 F100.000
G2 X124.962 Y30.791 Z-1.200 I1.791 J0.148 K0.000 F100.000
G2 X126.852 Y28.566 Z-1.200 I0.146 J-1.791 K0.000 F100.000
G0 Z5.000
G0 Z5.000
G0 X126.852 Y28.566
G0 X119.511 Y28.915
G0 X119.511 Y28.915 Z3.000
G1 X119.511 Y28.915 Z-0.700 F50.000
G2 X115.970 Y28.573 Z-0.700 I-1.795 J0.085 K0.000 F100.000
G2 X119.461 Y29.427 Z-0.700 I1.746 J0.427 K0.000 F100.000
G2 X119.511 Y28.915 Z-0.700 I-1.746 J-0.427 K0.000 F100.000
G1 X119.511 Y28.915 Z-1.200 F50.000
G2 X115.970 Y28.573 Z-1.200 I-1.795 J0.085 K0.000 F100.000
G2 X119.461 Y29.427 Z-1.200 I1.746 J0.427 K0.000 F100.000
G2 X119.511 Y28.915 Z-1.200 I-1.746 J-0.427 K0.000 F100.000
G0 Z5.000
G0 Z5.000
G0 X119.511 Y28.915
G0 X112.121 Y28.983
G0 X112.121 Y28.983 Z3.000
G1 X112.121 Y28.983 Z-0.700 F50.000
G2 X108.578 Y28.573 Z-0.700 I-1.797 J0.017 K0.000 F100.000
G2 X112.069 Y29.427 Z-0.700 I1.746 J0.427 K0.000 F100.000
G2 X112.121 Y28.983 Z-0.700 I-1.746 J-0.427 K0.000 F100.000
G1 X112.121 Y28.983 Z-1.200 F50.000
G2 X108.578 Y28.573 Z-1.200 I-1.797 J0.017 K0.000 F100.000
G2 X112.069 Y29.427 Z-1.200 I1.746 J0.427 K0.000 F100.000
G2 X112.121 Y28.983 Z-1.200 I-1.746 J-0.427 K0.000 F100.000
G0 Z5.000
G0 Z5.000
G0 X112.121 Y28.983
G0 X103.621 Y28.997
G0 X103.621 Y28.997 Z3.000
G1 X103.621 Y28.997 Z-0.700 F50.000
G2 X101.974 Y27.210 Z-0.700 I-1.797 J0.003 K0.000 F100.000
G2 X100.034 Y28.852 Z-0.700 I-0.150 J1.790 K0.000 F100.000
G2 X101.678 Y30.791 Z-0.700 I1.791 J0.148 K0.000 F100.000
G2 X103.621 Y28.997 Z-0.700 I0.146 J-1.791 K0.000 F100.000
G1 X103.621 Y28.997 Z-1.200 F50.000
G2 X101.974 Y27.210 Z-1.200 I-1.797 J0.003 K0.000 F100.000
G2 X100.034 Y28.852 Z-1.200 I-0.150 J1.790 K0.000 F100.000
G2 X101.678 Y30.791 Z-1.200 I1.791 J0.148 K0.000 F100.000
G2 X103.621 Y28.997 Z-1.200 I0.146 J-1.791 K0.000 F100.000
G0 Z5.000
G0 Z5.000
G0 X103.621 Y28.997
G0 X96.233 Y29.000
G0 X96.233 Y29.000 Z3.000
G1 X96.233 Y29.000 Z-0.700 F50.000
G2 X96.228 Y28.866 Z-0.700 I-1.797 J0.001 K0.000 F100.000
G1 X96.185 Y28.588 Z-0.700 F100.000
G2 X92.664 Y29.296 Z-0.700 I-1.749 J0.412 K0.000 F100.000
G2 X96.233 Y29.000 Z-0.700 I1.772 J-0.296 K0.000 F100.000
G1 X96.233 Y29.000 Z-1.200 F50.000
G2 X96.228 Y28.866 Z-1.200 I-1.797 J0.001 K0.000 F100.000
G1 X96.185 Y28.588 Z-1.200 F100.000
G2 X92.664 Y29.296 Z-1.200 I-1.749 J0.412 K0.000 F100.000
G2 X96.233 Y29.000 Z-1.200 I1.772 J-0.296 K0.000 F100.000
G0 Z5.000
G0 Z5.000
G0 X96.233 Y29.000
G0 X88.846 Y29.000
G0 X88.846 Y29.000 Z3.000
G1 X88.846 Y29.000 Z-0.700 F50.000
G2 X87.199 Y27.210 Z-0.700 I-1.797 J0.000 K0.000 F100.000
G2 X85.258 Y28.852 Z-0.700 I-0.150 J1.790 K0.000 F100.000
G2 X86.902 Y30.791 Z-0.700 I1.791 J0.148 K0.000 F100.000
G2 X88.846 Y29.000 Z-0.700 I0.146 J-1.791 K0.000 F100.000
G1 X88.846 Y29.000 Z-1.200 F50.000
G2 X87.199 Y27.210 Z-1.200 I-1.797 J0.000 K0.000 F100.000
G2 X85.258 Y28.852 Z-1.200 I-0.150 J1.790 K0.000 F100.000
G2 X86.902 Y30.791 Z-1.200 I1.791 J0.148 K0.000 F100.000
G2 X88.846 Y29.000 Z-1.200 I0.146 J-1.791 K0.000 F100.000
G0 Z5.000
G0 Z5.000
G0 X88.846 Y29.000
G0 X81.458 Y29.000
G0 X81.458 Y29.000 Z3.000
G1 X81.458 Y29.000 Z-0.700 F50.000
G2 X81.453 Y28.866 Z-0.700 I-1.797 J0.000 K0.000 F100.000
G1 X81.410 Y28.588 Z-0.700 F100.000
G2 X77.889 Y29.296 Z-0.700 I-1.749 J0.412 K0.000 F100.000
G2 X81.458 Y29.000 Z-0.700 I1.772 J-0.296 K0.000 F100.000
G1 X81.458 Y29.000 Z-1.200 F50.000
G2 X81.453 Y28.866 Z-1.200 I-1.797 J0.000 K0.000 F100.000
G1 X81.410 Y28.588 Z-1.200 F100.000
G2 X77.889 Y29.296 Z-1.200 I-1.749 J0.412 K0.000 F100.000
G2 X81.458 Y29.000 Z-1.200 I1.772 J-0.296 K0.000 F100.000
G0 Z5.000
G0 Z5.000
G0 X81.458 Y29.000
G0 X72.958 Y29.000
G0 X72.958 Y29.000 Z3.000
G1 X72.958 Y29.000 Z-0.700 F50.000
G2 X71.312 Y27.210 Z-0.700 I-1.797 J-0.000 K0.000 F100.000
G2 X69.371 Y28.852 Z-0.700 I-0.150 J1.790 K0.000 F100.000
G2 X71.015 Y30.791 Z-0.700 I1.791 J0.148 K0.000 F100.000
G2 X72.958 Y29.000 Z-0.700 I0.146 J-1.791 K0.000 F100.000
G1 X72.958 Y29.000 Z-1.200 F50.000
G2 X71.312 Y27.210 Z-1.200 I-1.797 J-0.000 K0.000 F100.000
G2 X69.371 Y28.852 Z-1.200 I-0.150 J1.790 K0.000 F100.000
G2 X71.015 Y30.791 Z-1.200 I1.791 J0.148 K0.000 F100.000
G2 X72.958 Y29.000 Z-1.200 I0.146 J-1.791 K0.000 F100.000
G0 Z5.000
G0 Z5.000
G0 X72.958 Y29.000
G0 X65.274 Y29.000
G0 X65.274 Y29.000 Z3.000
G1 X65.274 Y29.000 Z-0.700 F50.000
G2 X63.918 Y27.258 Z-0.700 I-1.797 J0.000 K0.000 F100.000
G1 X63.624 Y27.209 Z-0.700 F100.000
G2 X63.051 Y30.746 Z-0.700 I-0.146 J1.791 K0.000 F100.000
G2 X65.274 Y29.000 Z-0.700 I0.426 J-1.745 K0.000 F100.000
G1 X65.274 Y29.000 Z-1.200 F50.000
G2 X63.918 Y27.258 Z-1.200 I-1.797 J0.000 K0.000 F100.000
G1 X63.624 Y27.209 Z-1.200 F100.000
G2 X63.051 Y30.746 Z-1.200 I-0.146 J1.791 K0.000 F100.000
G2 X65.274 Y29.000 Z-1.200 I0.426 J-1.745 K0.000 F100.000
G0 Z5.000
G0 Z5.000
G0 X65.274 Y29.000
G0 X57.591 Y29.000
G0 X57.591 Y29.000 Z3.000
G1 X57.591 Y29.000 Z-0.700 F50.000
G2 X56.220 Y27.254 Z-0.700 I-1.797 J-0.000 K0.000 F100.000
G2 X55.367 Y30.746 Z-0.700 I-0.427 J1.746 K0.000 F100.000
G2 X57.591 Y29.000 Z-0.700 I0.427 J-1.746 K0.000 F100.000
G1 X57.591 Y29.000 Z-1.200 F50.000
G2 X56.220 Y27.254 Z-1.200 I-1.797 J-0.000 K0.000 F100.000
G2 X55.367 Y30.746 Z-1.200 I-0.427 J1.746 K0.000 F100.000
G2 X57.591 Y29.000 Z-1.200 I0.427 J-1.746 K0.000 F100.000
G0 Z5.000
G0 Z5.000
G0 X57.591 Y29.000
G0 X49.907 Y29.000
G0 X49.907 Y29.000 Z3.000
G1 X49.907 Y29.000 Z-0.700 F50.000
G2 X49.902 Y28.866 Z-0.700 I-1.797 J0.000 K0.000 F100.000
G1 X49.859 Y28.588 Z-0.700 F100.000
G2 X46.338 Y29.296 Z-0.700 I-1.749 J0.412 K0.000 F100.000
G2 X49.907 Y29.000 Z-0.700 I1.772 J-0.296 K0.000 F100.000
G1 X49.907 Y29.000 Z-1.200 F50.000
G2 X49.902 Y28.866 Z-1.200 I-1.797 J0.000 K0.000 F100.000
G1 X49.859 Y28.588 Z-1.200 F100.000
G2 X46.338 Y29.296 Z-1.200 I-1.749 J0.412 K0.000 F100.000
G2 X49.907 Y29.000 Z-1.200 I1.772 J-0.296 K0.000 F100.000
G0 Z5.000
G0 Z5.000
G0 X49.907 Y29.000
G0 X41.407 Y29.000
G0 X41.407 Y29.000 Z3.000
G1 X41.407 Y29.000 Z-0.700 F50.000
G2 X37.864 Y28.573 Z-0.700 I-1.797 J-0.000 K0.000 F100.000
G2 X41.355 Y29.427 Z-0.700 I1.746 J0.427 K0.000 F100.000
G2 X41.407 Y29.000 Z-0.700 I-1.746 J-0.427 K0.000 F100.000
G1 X41.407 Y29.000 Z-1.200 F50.000
G2 X37.864 Y28.573 Z-1.200 I-1.797 J-0.000 K0.000 F100.000
G2 X41.355 Y29.427 Z-1.200 I1.746 J0.427 K0.000 F100.000
G2 X41.407 Y29.000 Z-1.200 I-1.746 J-0.427 K0.000 F100.000
G0 Z5.000
G0 Z5.000
G0 X41.407 Y29.000
G0 X34.037 Y29.000
G0 X34.037 Y29.000 Z3.000
G1 X34.037 Y29.000 Z-0.700 F50.000
G2 X30.494 Y28.573 Z-0.700 I-1.797 J-0.000 K0.000 F100.000
G2 X33.985 Y29.427 Z-0.700 I1.746 J0.427 K0.000 F100.000
G2 X34.037 Y29.000 Z-0.700 I-1.746 J-0.427 K0.000 F100.000
G1 X34.037 Y29.000 Z-1.200 F50.000
G2 X30.494 Y28.573 Z-1.200 I-1.797 J-0.000 K0.000 F100.000
G2 X33.985 Y29.427 Z-1.200 I1.746 J0.427 K0.000 F100.000
G2 X34.037 Y29.000 Z-1.200 I-1.746 J-0.427 K0.000 F100.000
G0 Z5.000
G0 Z5.000
G0 X34.037 Y29.000
G0 X26.667 Y29.000
G0 X26.667 Y29.000 Z3.000
G1 X26.667 Y29.000 Z-0.700 F50.000
G2 X23.124 Y28.573 Z-0.700 I-1.797 J-0.000 K0.000 F100.000
G2 X26.615 Y29.427 Z-0.700 I1.746 J0.427 K0.000 F100.000
G2 X26.667 Y29.000 Z-0.700 I-1.746 J-0.427 K0.000 F100.000
G1 X26.667 Y29.000 Z-1.200 F50.000
G2 X23.124 Y28.573 Z-1.200 I-1.797 J-0.000 K0.000 F100.000
G2 X26.615 Y29.427 Z-1.200 I1.746 J0.427 K0.000 F100.000
G2 X26.667 Y29.000 Z-1.200 I-1.746 J-0.427 K0.000 F100.000
G0 Z5.000
G0 Z5.000
G0 X26.667 Y29.000
G0 X19.297 Y29.000
G0 X19.297 Y29.000 Z3.000
G1 X19.297 Y29.000 Z-0.700 F50.000
G2 X15.754 Y28.573 Z-0.700 I-1.797 J-0.000 K0.000 F100.000
G2 X19.246 Y29.427 Z-0.700 I1.746 J0.427 K0.000 F100.000
G2 X19.297 Y29.000 Z-0.700 I-1.746 J-0.427 K0.000 F100.000
G1 X19.297 Y29.000 Z-1.200 F50.000
G2 X15.754 Y28.573 Z-1.200 I-1.797 J-0.000 K0.000 F100.000
G2 X19.246 Y29.427 Z-1.200 I1.746 J0.427 K0.000 F100.000
G2 X19.297 Y29.000 Z-1.200 I-1.746 J-0.427 K0.000 F100.000
G0 Z5.000
(Finish operation: Profile001)
(Begin operation: Profile002)
(Path: Profile002)
(Profile002)
(Compensated Tool Path. Diameter: 2.0)
G0 Z5.000
G0 X150.556 Y39.556
G0 Z3.000
G1 X150.556 Y39.556 Z-0.700 F50.000
G2 X151.000 Y38.500 Z-0.700 I-1.072 J-1.072 K0.000 F100.000
G1 X151.000 Y10.500 Z-0.700 F100.000
G2 X149.500 Y9.000 Z-0.700 I-1.516 J0.016 K0.000 F100.000
G1 X137.049 Y9.000 Z-0.700 F100.000
G3 X136.000 Y7.951 Z-0.700 I-0.036 J-1.013 K0.000 F100.000
G1 X136.000 Y0.500 Z-0.700 F100.000
G2 X134.500 Y-1.000 Z-0.700 I-1.516 J0.016 K0.000 F100.000
G1 X15.500 Y-1.000 Z-0.700 F100.000
G2 X14.000 Y0.500 Z-0.700 I0.016 J1.516 K0.000 F100.000
G1 X14.000 Y7.951 Z-0.700 F100.000
G3 X12.951 Y9.000 Z-0.700 I-1.013 J0.036 K0.000 F100.000
G1 X0.500 Y9.000 Z-0.700 F100.000
G2 X-1.000 Y10.500 Z-0.700 I0.016 J1.516 K0.000 F100.000
G1 X-1.000 Y38.500 Z-0.700 F100.000
G2 X0.500 Y40.000 Z-0.700 I1.516 J-0.016 K0.000 F100.000
G1 X149.500 Y40.000 Z-0.700 F100.000
G2 X150.556 Y39.556 Z-0.700 I-0.016 J-1.516 K0.000 F100.000
G1 X150.556 Y39.556 Z-1.400 F50.000
G2 X151.000 Y38.500 Z-1.400 I-1.072 J-1.072 K0.000 F100.000
G1 X151.000 Y10.500 Z-1.400 F100.000
G2 X149.500 Y9.000 Z-1.400 I-1.516 J0.016 K0.000 F100.000
G1 X137.049 Y9.000 Z-1.400 F100.000
G3 X136.000 Y7.951 Z-1.400 I-0.036 J-1.013 K0.000 F100.000
G1 X136.000 Y0.500 Z-1.400 F100.000
G2 X134.500 Y-1.000 Z-1.400 I-1.516 J0.016 K0.000 F100.000
G1 X15.500 Y-1.000 Z-1.400 F100.000
G2 X14.000 Y0.500 Z-1.400 I0.016 J1.516 K0.000 F100.000
G1 X14.000 Y7.951 Z-1.400 F100.000
G3 X12.951 Y9.000 Z-1.400 I-1.013 J0.036 K0.000 F100.000
G1 X0.500 Y9.000 Z-1.400 F100.000
G2 X-1.000 Y10.500 Z-1.400 I0.016 J1.516 K0.000 F100.000
G1 X-1.000 Y38.500 Z-1.400 F100.000
G2 X0.500 Y40.000 Z-1.400 I1.516 J-0.016 K0.000 F100.000
G1 X149.500 Y40.000 Z-1.400 F100.000
G2 X150.556 Y39.556 Z-1.400 I-0.016 J-1.516 K0.000 F100.000
G1 X150.556 Y39.556 Z-2.100 F50.000
G2 X151.000 Y38.500 Z-2.100 I-1.072 J-1.072 K0.000 F100.000
G1 X151.000 Y10.500 Z-2.100 F100.000
G2 X149.500 Y9.000 Z-2.100 I-1.516 J0.016 K0.000 F100.000
G1 X137.049 Y9.000 Z-2.100 F100.000
G3 X136.000 Y7.951 Z-2.100 I-0.036 J-1.013 K0.000 F100.000
G1 X136.000 Y0.500 Z-2.100 F100.000
G2 X134.500 Y-1.000 Z-2.100 I-1.516 J0.016 K0.000 F100.000
G1 X15.500 Y-1.000 Z-2.100 F100.000
G2 X14.000 Y0.500 Z-2.100 I0.016 J1.516 K0.000 F100.000
G1 X14.000 Y7.951 Z-2.100 F100.000
G3 X12.951 Y9.000 Z-2.100 I-1.013 J0.036 K0.000 F100.000
G1 X0.500 Y9.000 Z-2.100 F100.000
G2 X-1.000 Y10.500 Z-2.100 I0.016 J1.516 K0.000 F100.000
G1 X-1.000 Y38.500 Z-2.100 F100.000
G2 X0.500 Y40.000 Z-2.100 I1.516 J-0.016 K0.000 F100.000
G1 X149.500 Y40.000 Z-2.100 F100.000
G2 X150.556 Y39.556 Z-2.100 I-0.016 J-1.516 K0.000 F100.000
G1 X150.556 Y39.556 Z-2.800 F50.000
G2 X151.000 Y38.500 Z-2.800 I-1.072 J-1.072 K0.000 F100.000
G1 X151.000 Y10.500 Z-2.800 F100.000
G2 X149.500 Y9.000 Z-2.800 I-1.516 J0.016 K0.000 F100.000
G1 X137.049 Y9.000 Z-2.800 F100.000
G3 X136.000 Y7.951 Z-2.800 I-0.036 J-1.013 K0.000 F100.000
G1 X136.000 Y0.500 Z-2.800 F100.000
G2 X134.500 Y-1.000 Z-2.800 I-1.516 J0.016 K0.000 F100.000
G1 X15.500 Y-1.000 Z-2.800 F100.000
G2 X14.000 Y0.500 Z-2.800 I0.016 J1.516 K0.000 F100.000
G1 X14.000 Y7.951 Z-2.800 F100.000
G3 X12.951 Y9.000 Z-2.800 I-1.013 J0.036 K0.000 F100.000
G1 X0.500 Y9.000 Z-2.800 F100.000
G2 X-1.000 Y10.500 Z-2.800 I0.016 J1.516 K0.000 F100.000
G1 X-1.000 Y38.500 Z-2.800 F100.000
G2 X0.500 Y40.000 Z-2.800 I1.516 J-0.016 K0.000 F100.000
G1 X149.500 Y40.000 Z-2.800 F100.000
G2 X150.556 Y39.556 Z-2.800 I-0.016 J-1.516 K0.000 F100.000
G1 X150.556 Y39.556 Z-3.200 F50.000
G2 X151.000 Y38.500 Z-3.200 I-1.072 J-1.072 K0.000 F100.000
G1 X151.000 Y10.500 Z-3.200 F100.000
G2 X149.500 Y9.000 Z-3.200 I-1.516 J0.016 K0.000 F100.000
G1 X137.049 Y9.000 Z-3.200 F100.000
G3 X136.000 Y7.951 Z-3.200 I-0.036 J-1.013 K0.000 F100.000
G1 X136.000 Y0.500 Z-3.200 F100.000
G2 X134.500 Y-1.000 Z-3.200 I-1.516 J0.016 K0.000 F100.000
G1 X15.500 Y-1.000 Z-3.200 F100.000
G2 X14.000 Y0.500 Z-3.200 I0.016 J1.516 K0.000 F100.000
G1 X14.000 Y7.951 Z-3.200 F100.000
G3 X12.951 Y9.000 Z-3.200 I-1.013 J0.036 K0.000 F100.000
G1 X0.500 Y9.000 Z-3.200 F100.000
G2 X-1.000 Y10.500 Z-3.200 I0.016 J1.516 K0.000 F100.000
G1 X-1.000 Y38.500 Z-3.200 F100.000
G2 X0.500 Y40.000 Z-3.200 I1.516 J-0.016 K0.000 F100.000
G1 X149.500 Y40.000 Z-3.200 F100.000
G2 X150.556 Y39.556 Z-3.200 I-0.016 J-1.516 K0.000 F100.000
G0 Z5.000
(Finish operation: Profile002)
(Begin postamble)
M5
G17 G90
M2
